; HEADER_BLOCK_START
; generated by OrcaSlicer 1.8.1 on 2024-01-03 at 20:01:33
; total layer number: 4
; HEADER_BLOCK_END

; THUMBNAIL_BLOCK_START

;
; THUMBNAIL_BLOCK_END

; THUMBNAIL_BLOCK_START

;
; THUMBNAIL_BLOCK_END

; external perimeters extrusion width = 0.40mm
; perimeters extrusion width = 0.40mm
; infill extrusion width = 0.40mm
; solid infill extrusion width = 0.40mm
; top infill extrusion width = 0.40mm
; first layer extrusion width = 0.56mm

; EXECUTABLE_BLOCK_START
EXCLUDE_OBJECT_DEFINE NAME=Orca-PA-Calibration-Test CENTER=0,0 POLYGON=[[5,5],[369,5],[369,359],[5,359],[5,5]]
M73 P0 R11
;TYPE:Custom
START_PRINT EXTRUDER_TEMP=255 BED_TEMP=70
G90
G21
M83 ; use relative distances for extrusion
; filament start gcode
SET_PRESSURE_ADVANCE ADVANCE=0; Override pressure advance value
M106 S0
;LAYER_CHANGE
;Z:0.25
;HEIGHT:0.25
;BEFORE_LAYER_CHANGE
;0.25
G92 E0

G1 E-1 F2400
;AFTER_LAYER_CHANGE
;0.25
;_SET_FAN_SPEED_CHANGING_LAYER
SET_VELOCITY_LIMIT ACCEL=500 ACCEL_TO_DECEL=250
;CUSTOM_GCODE
; start pressure advance pattern for layer
G1 E-1
G1 X114.251 Y156.507 F21000
G1 E1 F1800
G1 Z.25 F21000
SET_PRESSURE_ADVANCE ADVANCE=0; Override pressure advance value
G1 E-1 F2400
G1 X114.251 Y156.507 F21000
G1 E1 F1800

G1 X114.251 Y198.933 E2.16587

G1 X248.749 Y198.933 E6.86614

M73 P1 R10
G1 X248.749 Y156.507 E2.16587

G1 X114.251 Y156.507 E6.86614
M73 P2 R10
G1 E-1 F2400
G1 X114.757 Y157.013 F21000
G1 E1 F1800

G1 X114.757 Y198.427 E2.11417

G1 X248.243 Y198.427 E6.81444

G1 X248.243 Y157.013 E2.11417

M73 P3 R10
G1 X114.757 Y157.013 E6.81444
G1 E-1 F2400
G1 X115.264 Y157.519 F21000
G1 E1 F1800

G1 X115.264 Y197.921 E2.06247

M73 P4 R10
G1 X247.736 Y197.921 E6.76274

G1 X247.736 Y157.519 E2.06247

G1 X115.264 Y157.519 E6.76274
M73 P5 R10
G1 E-1 F2400
G1 X114.251 Y199.44 F21000
G1 E1 F1800

G1 X114.251 Y212.946 E.6895

G1 X228.94 Y212.946 E5.8549

M73 P6 R10
G1 X228.94 Y199.44 E.6895

G1 X114.251 Y199.44 E5.8549
G1 E-1 F2400
G1 X114.757 Y199.946 F21000
G1 E1 F1800

G1 X114.757 Y212.44 E.6378

M73 P7 R10
G1 X228.434 Y212.44 E5.8032

G1 X228.434 Y199.946 E.6378

G1 X114.757 Y199.946 E5.8032
M73 P8 R10
G1 E-1 F2400
G1 X115.264 Y200.452 F21000
G1 E1 F1800

G1 X115.264 Y211.933 E.5861

G1 X227.928 Y211.933 E5.7515

G1 X227.928 Y200.452 E.5861

G1 X115.264 Y200.452 E5.7515
M73 P9 R10
G1 E-1 F2400
G1 X115.637 Y200.826 F21000
G1 E1 F1800
G1 E-1 F2400
G1 X116.353 Y200.826 F21000
G1 E1 F1800

G1 X115.637 Y201.542 E.0517
G1 E-1 F2400
G1 X115.637 Y202.258 F21000
G1 E1 F1800

G1 X117.069 Y200.826 E.1034
G1 E-1 F2400
G1 X117.785 Y200.826 F21000
G1 E1 F1800

G1 X115.637 Y202.974 E.1551
G1 E-1 F2400
G1 X115.637 Y203.69 F21000
G1 E1 F1800

G1 X118.501 Y200.826 E.20679
G1 E-1 F2400
G1 X119.217 Y200.826 F21000
G1 E1 F1800

G1 X115.637 Y204.406 E.25849
G1 E-1 F2400
G1 X115.637 Y205.122 F21000
G1 E1 F1800

G1 X119.933 Y200.826 E.31019
G1 E-1 F2400
G1 X120.65 Y200.826 F21000
G1 E1 F1800

G1 X115.637 Y205.838 E.36189
G1 E-1 F2400
G1 X115.637 Y206.554 F21000
G1 E1 F1800

G1 X121.366 Y200.826 E.41359
G1 E-1 F2400
G1 X122.082 Y200.826 F21000
G1 E1 F1800

G1 X115.637 Y207.27 E.46529
M73 P10 R10
G1 E-1 F2400
G1 X115.637 Y207.986 F21000
M73 P10 R9
G1 E1 F1800

G1 X122.798 Y200.826 E.51698
G1 E-1 F2400
G1 X123.514 Y200.826 F21000
G1 E1 F1800

G1 X115.637 Y208.703 E.56868
G1 E-1 F2400
G1 X115.637 Y209.419 F21000
G1 E1 F1800

G1 X124.23 Y200.826 E.62038
G1 E-1 F2400
G1 X124.946 Y200.826 F21000
G1 E1 F1800

G1 X115.637 Y210.135 E.67208
G1 E-1 F2400
G1 X115.637 Y210.851 F21000
G1 E1 F1800

G1 X125.662 Y200.826 E.72378
G1 E-1 F2400
G1 X126.378 Y200.826 F21000
G1 E1 F1800

G1 X115.644 Y211.56 E.77497
G1 E-1 F2400
G1 X116.36 Y211.56 F21000
G1 E1 F1800

G1 X127.094 Y200.826 E.77497
G1 E-1 F2400
G1 X127.81 Y200.826 F21000
G1 E1 F1800

G1 X117.076 Y211.56 E.77497
G1 E-1 F2400
G1 X117.792 Y211.56 F21000
G1 E1 F1800

G1 X128.526 Y200.826 E.77497
G1 E-1 F2400
G1 X129.243 Y200.826 F21000
G1 E1 F1800

G1 X118.508 Y211.56 E.77497
G1 E-1 F2400
G1 X119.224 Y211.56 F21000
G1 E1 F1800

G1 X129.959 Y200.826 E.77497
M73 P11 R9
G1 E-1 F2400
G1 X130.675 Y200.826 F21000
G1 E1 F1800

G1 X119.94 Y211.56 E.77497
G1 E-1 F2400
G1 X120.657 Y211.56 F21000
G1 E1 F1800

G1 X131.391 Y200.826 E.77497
G1 E-1 F2400
G1 X132.107 Y200.826 F21000
G1 E1 F1800

G1 X121.373 Y211.56 E.77497
G1 E-1 F2400
G1 X122.089 Y211.56 F21000
G1 E1 F1800

G1 X132.823 Y200.826 E.77497
G1 E-1 F2400
G1 X133.539 Y200.826 F21000
G1 E1 F1800

G1 X122.805 Y211.56 E.77497
G1 E-1 F2400
G1 X123.521 Y211.56 F21000
G1 E1 F1800

G1 X134.255 Y200.826 E.77497
G1 E-1 F2400
G1 X134.971 Y200.826 F21000
G1 E1 F1800

G1 X124.237 Y211.56 E.77497
G1 E-1 F2400
G1 X124.953 Y211.56 F21000
G1 E1 F1800

G1 X135.687 Y200.826 E.77497
G1 E-1 F2400
G1 X136.403 Y200.826 F21000
G1 E1 F1800

G1 X125.669 Y211.56 E.77497
G1 E-1 F2400
G1 X126.385 Y211.56 F21000
G1 E1 F1800

G1 X137.12 Y200.826 E.77497
M73 P12 R9
G1 E-1 F2400
G1 X137.836 Y200.826 F21000
G1 E1 F1800

G1 X127.101 Y211.56 E.77497
G1 E-1 F2400
G1 X127.817 Y211.56 F21000
G1 E1 F1800

G1 X138.552 Y200.826 E.77497
G1 E-1 F2400
G1 X139.268 Y200.826 F21000
G1 E1 F1800

G1 X128.533 Y211.56 E.77497
G1 E-1 F2400
G1 X129.25 Y211.56 F21000
G1 E1 F1800

G1 X139.984 Y200.826 E.77497
G1 E-1 F2400
G1 X140.7 Y200.826 F21000
G1 E1 F1800

G1 X129.966 Y211.56 E.77497
G1 E-1 F2400
G1 X130.682 Y211.56 F21000
G1 E1 F1800

G1 X141.416 Y200.826 E.77497
G1 E-1 F2400
G1 X142.132 Y200.826 F21000
G1 E1 F1800

G1 X131.398 Y211.56 E.77497
G1 E-1 F2400
G1 X132.114 Y211.56 F21000
G1 E1 F1800

G1 X142.848 Y200.826 E.77497
G1 E-1 F2400
G1 X143.564 Y200.826 F21000
G1 E1 F1800

G1 X132.83 Y211.56 E.77497
G1 E-1 F2400
G1 X133.546 Y211.56 F21000
G1 E1 F1800

G1 X144.28 Y200.826 E.77497
M73 P13 R9
G1 E-1 F2400
G1 X144.996 Y200.826 F21000
G1 E1 F1800

G1 X134.262 Y211.56 E.77497
G1 E-1 F2400
G1 X134.978 Y211.56 F21000
G1 E1 F1800

G1 X145.713 Y200.826 E.77497
G1 E-1 F2400
G1 X146.429 Y200.826 F21000
G1 E1 F1800

G1 X135.694 Y211.56 E.77497
G1 E-1 F2400
G1 X136.41 Y211.56 F21000
G1 E1 F1800

G1 X147.145 Y200.826 E.77497
G1 E-1 F2400
G1 X147.861 Y200.826 F21000
G1 E1 F1800

G1 X137.127 Y211.56 E.77497
G1 E-1 F2400
G1 X137.843 Y211.56 F21000
G1 E1 F1800

G1 X148.577 Y200.826 E.77497
G1 E-1 F2400
G1 X149.293 Y200.826 F21000
G1 E1 F1800

G1 X138.559 Y211.56 E.77497
G1 E-1 F2400
G1 X139.275 Y211.56 F21000
G1 E1 F1800

G1 X150.009 Y200.826 E.77497
G1 E-1 F2400
G1 X150.725 Y200.826 F21000
G1 E1 F1800

G1 X139.991 Y211.56 E.77497
G1 E-1 F2400
G1 X140.707 Y211.56 F21000
G1 E1 F1800

G1 X151.441 Y200.826 E.77497
M73 P14 R9
G1 E-1 F2400
G1 X152.157 Y200.826 F21000
G1 E1 F1800

G1 X141.423 Y211.56 E.77497
G1 E-1 F2400
G1 X142.139 Y211.56 F21000
G1 E1 F1800

G1 X152.873 Y200.826 E.77497
G1 E-1 F2400
G1 X153.59 Y200.826 F21000
G1 E1 F1800

G1 X142.855 Y211.56 E.77497
G1 E-1 F2400
G1 X143.571 Y211.56 F21000
G1 E1 F1800

G1 X154.306 Y200.826 E.77497
G1 E-1 F2400
G1 X155.022 Y200.826 F21000
G1 E1 F1800

G1 X144.287 Y211.56 E.77497
G1 E-1 F2400
G1 X145.003 Y211.56 F21000
G1 E1 F1800

G1 X155.738 Y200.826 E.77497
G1 E-1 F2400
G1 X156.454 Y200.826 F21000
G1 E1 F1800

G1 X145.72 Y211.56 E.77497
G1 E-1 F2400
G1 X146.436 Y211.56 F21000
G1 E1 F1800

G1 X157.17 Y200.826 E.77497
G1 E-1 F2400
G1 X157.886 Y200.826 F21000
G1 E1 F1800

G1 X147.152 Y211.56 E.77497
G1 E-1 F2400
G1 X147.868 Y211.56 F21000
G1 E1 F1800

G1 X158.602 Y200.826 E.77497
M73 P15 R9
G1 E-1 F2400
G1 X159.318 Y200.826 F21000
G1 E1 F1800

G1 X148.584 Y211.56 E.77497
G1 E-1 F2400
G1 X149.3 Y211.56 F21000
G1 E1 F1800

G1 X160.034 Y200.826 E.77497
G1 E-1 F2400
G1 X160.75 Y200.826 F21000
G1 E1 F1800

G1 X150.016 Y211.56 E.77497
G1 E-1 F2400
G1 X150.732 Y211.56 F21000
G1 E1 F1800

G1 X161.466 Y200.826 E.77497
G1 E-1 F2400
G1 X162.183 Y200.826 F21000
G1 E1 F1800

G1 X151.448 Y211.56 E.77497
G1 E-1 F2400
G1 X152.164 Y211.56 F21000
G1 E1 F1800

G1 X162.899 Y200.826 E.77497
G1 E-1 F2400
G1 X163.615 Y200.826 F21000
G1 E1 F1800

G1 X152.88 Y211.56 E.77497
G1 E-1 F2400
G1 X153.597 Y211.56 F21000
G1 E1 F1800

G1 X164.331 Y200.826 E.77497
G1 E-1 F2400
G1 X165.047 Y200.826 F21000
G1 E1 F1800

G1 X154.313 Y211.56 E.77497
G1 E-1 F2400
G1 X155.029 Y211.56 F21000
M73 P16 R9
G1 E1 F1800

G1 X165.763 Y200.826 E.77497
G1 E-1 F2400
G1 X166.479 Y200.826 F21000
G1 E1 F1800

G1 X155.745 Y211.56 E.77497
G1 E-1 F2400
G1 X156.461 Y211.56 F21000
G1 E1 F1800

G1 X167.195 Y200.826 E.77497
G1 E-1 F2400
G1 X167.911 Y200.826 F21000
G1 E1 F1800

G1 X157.177 Y211.56 E.77497
G1 E-1 F2400
G1 X157.893 Y211.56 F21000
G1 E1 F1800

G1 X168.627 Y200.826 E.77497
G1 E-1 F2400
G1 X169.343 Y200.826 F21000
G1 E1 F1800

G1 X158.609 Y211.56 E.77497
G1 E-1 F2400
G1 X159.325 Y211.56 F21000
G1 E1 F1800

G1 X170.059 Y200.826 E.77497
G1 E-1 F2400
G1 X170.776 Y200.826 F21000
G1 E1 F1800

G1 X160.041 Y211.56 E.77497
G1 E-1 F2400
G1 X160.757 Y211.56 F21000
G1 E1 F1800

G1 X171.492 Y200.826 E.77497
G1 E-1 F2400
G1 X172.208 Y200.826 F21000
G1 E1 F1800

G1 X161.473 Y211.56 E.77497
G1 E-1 F2400
G1 X162.19 Y211.56 F21000
M73 P17 R9
G1 E1 F1800

G1 X172.924 Y200.826 E.77497
G1 E-1 F2400
G1 X173.64 Y200.826 F21000
G1 E1 F1800

G1 X162.906 Y211.56 E.77497
G1 E-1 F2400
G1 X163.622 Y211.56 F21000
G1 E1 F1800

G1 X174.356 Y200.826 E.77497
G1 E-1 F2400
G1 X175.072 Y200.826 F21000
G1 E1 F1800

G1 X164.338 Y211.56 E.77497
G1 E-1 F2400
G1 X165.054 Y211.56 F21000
G1 E1 F1800

G1 X175.788 Y200.826 E.77497
G1 E-1 F2400
G1 X176.504 Y200.826 F21000
G1 E1 F1800

G1 X165.77 Y211.56 E.77497
G1 E-1 F2400
G1 X166.486 Y211.56 F21000
G1 E1 F1800

G1 X177.22 Y200.826 E.77497
G1 E-1 F2400
G1 X177.936 Y200.826 F21000
G1 E1 F1800

G1 X167.202 Y211.56 E.77497
G1 E-1 F2400
G1 X167.918 Y211.56 F21000
G1 E1 F1800

G1 X178.653 Y200.826 E.77497
G1 E-1 F2400
G1 X179.369 Y200.826 F21000
G1 E1 F1800

G1 X168.634 Y211.56 E.77497
M73 P18 R9
G1 E-1 F2400
G1 X169.35 Y211.56 F21000
G1 E1 F1800

G1 X180.085 Y200.826 E.77497
G1 E-1 F2400
G1 X180.801 Y200.826 F21000
G1 E1 F1800

G1 X170.067 Y211.56 E.77497
G1 E-1 F2400
G1 X170.783 Y211.56 F21000
G1 E1 F1800

G1 X181.517 Y200.826 E.77497
G1 E-1 F2400
G1 X182.233 Y200.826 F21000
G1 E1 F1800

G1 X171.499 Y211.56 E.77497
G1 E-1 F2400
G1 X172.215 Y211.56 F21000
G1 E1 F1800

G1 X182.949 Y200.826 E.77497
G1 E-1 F2400
G1 X183.665 Y200.826 F21000
G1 E1 F1800

G1 X172.931 Y211.56 E.77497
G1 E-1 F2400
G1 X173.647 Y211.56 F21000
G1 E1 F1800

G1 X184.381 Y200.826 E.77497
G1 E-1 F2400
G1 X185.097 Y200.826 F21000
G1 E1 F1800

G1 X174.363 Y211.56 E.77497
G1 E-1 F2400
G1 X175.079 Y211.56 F21000
G1 E1 F1800

G1 X185.813 Y200.826 E.77497
G1 E-1 F2400
G1 X186.529 Y200.826 F21000
G1 E1 F1800

G1 X175.795 Y211.56 E.77497
M73 P19 R9
G1 E-1 F2400
G1 X176.511 Y211.56 F21000
G1 E1 F1800

G1 X187.246 Y200.826 E.77497
M73 P19 R8
G1 E-1 F2400
G1 X187.962 Y200.826 F21000
G1 E1 F1800

G1 X177.227 Y211.56 E.77497
G1 E-1 F2400
G1 X177.943 Y211.56 F21000
G1 E1 F1800

G1 X188.678 Y200.826 E.77497
G1 E-1 F2400
G1 X189.394 Y200.826 F21000
G1 E1 F1800

G1 X178.66 Y211.56 E.77497
G1 E-1 F2400
G1 X179.376 Y211.56 F21000
G1 E1 F1800

G1 X190.11 Y200.826 E.77497
G1 E-1 F2400
G1 X190.826 Y200.826 F21000
G1 E1 F1800

G1 X180.092 Y211.56 E.77497
G1 E-1 F2400
G1 X180.808 Y211.56 F21000
G1 E1 F1800

G1 X191.542 Y200.826 E.77497
G1 E-1 F2400
G1 X192.258 Y200.826 F21000
G1 E1 F1800

G1 X181.524 Y211.56 E.77497
G1 E-1 F2400
G1 X182.24 Y211.56 F21000
G1 E1 F1800

G1 X192.974 Y200.826 E.77497
G1 E-1 F2400
G1 X193.69 Y200.826 F21000
G1 E1 F1800

G1 X182.956 Y211.56 E.77497
M73 P20 R8
G1 E-1 F2400
G1 X183.672 Y211.56 F21000
G1 E1 F1800

G1 X194.406 Y200.826 E.77497
G1 E-1 F2400
G1 X195.123 Y200.826 F21000
G1 E1 F1800

G1 X184.388 Y211.56 E.77497
G1 E-1 F2400
G1 X185.104 Y211.56 F21000
G1 E1 F1800

G1 X195.839 Y200.826 E.77497
G1 E-1 F2400
G1 X196.555 Y200.826 F21000
G1 E1 F1800

G1 X185.82 Y211.56 E.77497
G1 E-1 F2400
G1 X186.536 Y211.56 F21000
G1 E1 F1800

G1 X197.271 Y200.826 E.77497
G1 E-1 F2400
G1 X197.987 Y200.826 F21000
G1 E1 F1800

G1 X187.253 Y211.56 E.77497
G1 E-1 F2400
G1 X187.969 Y211.56 F21000
G1 E1 F1800

G1 X198.703 Y200.826 E.77497
G1 E-1 F2400
G1 X199.419 Y200.826 F21000
G1 E1 F1800

G1 X188.685 Y211.56 E.77497
G1 E-1 F2400
G1 X189.401 Y211.56 F21000
G1 E1 F1800

G1 X200.135 Y200.826 E.77497
G1 E-1 F2400
G1 X200.851 Y200.826 F21000
G1 E1 F1800

G1 X190.117 Y211.56 E.77497
M73 P21 R8
G1 E-1 F2400
G1 X190.833 Y211.56 F21000
G1 E1 F1800

G1 X201.567 Y200.826 E.77497
G1 E-1 F2400
G1 X202.283 Y200.826 F21000
G1 E1 F1800

G1 X191.549 Y211.56 E.77497
G1 E-1 F2400
G1 X192.265 Y211.56 F21000
G1 E1 F1800

G1 X202.999 Y200.826 E.77497
G1 E-1 F2400
G1 X203.716 Y200.826 F21000
G1 E1 F1800

G1 X192.981 Y211.56 E.77497
G1 E-1 F2400
G1 X193.697 Y211.56 F21000
G1 E1 F1800

G1 X204.432 Y200.826 E.77497
G1 E-1 F2400
G1 X205.148 Y200.826 F21000
G1 E1 F1800

G1 X194.413 Y211.56 E.77497
G1 E-1 F2400
G1 X195.13 Y211.56 F21000
G1 E1 F1800

G1 X205.864 Y200.826 E.77497
G1 E-1 F2400
G1 X206.58 Y200.826 F21000
G1 E1 F1800

G1 X195.846 Y211.56 E.77497
G1 E-1 F2400
G1 X196.562 Y211.56 F21000
G1 E1 F1800

G1 X207.296 Y200.826 E.77497
G1 E-1 F2400
G1 X208.012 Y200.826 F21000
G1 E1 F1800

G1 X197.278 Y211.56 E.77497
M73 P22 R8
G1 E-1 F2400
G1 X197.994 Y211.56 F21000
G1 E1 F1800

G1 X208.728 Y200.826 E.77497
G1 E-1 F2400
G1 X209.444 Y200.826 F21000
G1 E1 F1800

G1 X198.71 Y211.56 E.77497
G1 E-1 F2400
G1 X199.426 Y211.56 F21000
G1 E1 F1800

G1 X210.16 Y200.826 E.77497
G1 E-1 F2400
G1 X210.876 Y200.826 F21000
G1 E1 F1800

G1 X200.142 Y211.56 E.77497
G1 E-1 F2400
G1 X200.858 Y211.56 F21000
G1 E1 F1800

G1 X211.593 Y200.826 E.77497
G1 E-1 F2400
G1 X212.309 Y200.826 F21000
G1 E1 F1800

G1 X201.574 Y211.56 E.77497
G1 E-1 F2400
G1 X202.29 Y211.56 F21000
G1 E1 F1800

G1 X213.025 Y200.826 E.77497
G1 E-1 F2400
G1 X213.741 Y200.826 F21000
G1 E1 F1800

G1 X203.006 Y211.56 E.77497
G1 E-1 F2400
G1 X203.723 Y211.56 F21000
G1 E1 F1800

G1 X214.457 Y200.826 E.77497
G1 E-1 F2400
G1 X215.173 Y200.826 F21000
G1 E1 F1800

G1 X204.439 Y211.56 E.77497
M73 P23 R8
G1 E-1 F2400
G1 X205.155 Y211.56 F21000
G1 E1 F1800

G1 X215.889 Y200.826 E.77497
G1 E-1 F2400
G1 X216.605 Y200.826 F21000
G1 E1 F1800

G1 X205.871 Y211.56 E.77497
G1 E-1 F2400
G1 X206.587 Y211.56 F21000
G1 E1 F1800

G1 X217.321 Y200.826 E.77497
G1 E-1 F2400
G1 X218.037 Y200.826 F21000
G1 E1 F1800

G1 X207.303 Y211.56 E.77497
G1 E-1 F2400
G1 X208.019 Y211.56 F21000
G1 E1 F1800

G1 X218.753 Y200.826 E.77497
G1 E-1 F2400
G1 X219.469 Y200.826 F21000
G1 E1 F1800

G1 X208.735 Y211.56 E.77497
G1 E-1 F2400
G1 X209.451 Y211.56 F21000
G1 E1 F1800

G1 X220.186 Y200.826 E.77497
G1 E-1 F2400
G1 X220.902 Y200.826 F21000
G1 E1 F1800

G1 X210.167 Y211.56 E.77497
G1 E-1 F2400
G1 X210.883 Y211.56 F21000
G1 E1 F1800

G1 X221.618 Y200.826 E.77497
G1 E-1 F2400
G1 X222.334 Y200.826 F21000
G1 E1 F1800

G1 X211.6 Y211.56 E.77497
M73 P24 R8
G1 E-1 F2400
G1 X212.316 Y211.56 F21000
G1 E1 F1800

G1 X223.05 Y200.826 E.77497
G1 E-1 F2400
G1 X223.766 Y200.826 F21000
G1 E1 F1800

G1 X213.032 Y211.56 E.77497
G1 E-1 F2400
G1 X213.748 Y211.56 F21000
G1 E1 F1800

G1 X224.482 Y200.826 E.77497
G1 E-1 F2400
G1 X225.198 Y200.826 F21000
G1 E1 F1800

G1 X214.464 Y211.56 E.77497
G1 E-1 F2400
G1 X215.18 Y211.56 F21000
G1 E1 F1800

G1 X225.914 Y200.826 E.77497
G1 E-1 F2400
G1 X226.63 Y200.826 F21000
G1 E1 F1800

G1 X215.896 Y211.56 E.77497
G1 E-1 F2400
G1 X216.612 Y211.56 F21000
G1 E1 F1800

G1 X227.346 Y200.826 E.77497
G1 E-1 F2400
G1 X227.554 Y201.334 F21000
G1 E1 F1800

G1 X217.328 Y211.56 E.73827
G1 E-1 F2400
G1 X218.044 Y211.56 F21000
G1 E1 F1800

G1 X227.554 Y202.05 E.68657
G1 E-1 F2400
G1 X227.554 Y202.766 F21000
G1 E1 F1800

G1 X218.76 Y211.56 E.63488
M73 P25 R8
G1 E-1 F2400
G1 X219.476 Y211.56 F21000
G1 E1 F1800

G1 X227.554 Y203.482 E.58318
G1 E-1 F2400
G1 X227.554 Y204.198 F21000
G1 E1 F1800

G1 X220.193 Y211.56 E.53148
G1 E-1 F2400
G1 X220.909 Y211.56 F21000
G1 E1 F1800

G1 X227.554 Y204.914 E.47978
G1 E-1 F2400
G1 X227.554 Y205.63 F21000
G1 E1 F1800

G1 X221.625 Y211.56 E.42808
G1 E-1 F2400
G1 X222.341 Y211.56 F21000
G1 E1 F1800

G1 X227.554 Y206.346 E.37638
G1 E-1 F2400
