; HEADER_BLOCK_START
; generated by OrcaSlicer 1.8.1 on 2024-01-03 at 20:24:08
; total layer number: 4
; HEADER_BLOCK_END

; THUMBNAIL_BLOCK_START

;
; THUMBNAIL_BLOCK_END

; THUMBNAIL_BLOCK_START

;
; THUMBNAIL_BLOCK_END

; external perimeters extrusion width = 0.40mm
; perimeters extrusion width = 0.40mm
; infill extrusion width = 0.40mm
; solid infill extrusion width = 0.40mm
; top infill extrusion width = 0.40mm
; first layer extrusion width = 0.56mm

; EXECUTABLE_BLOCK_START
EXCLUDE_OBJECT_DEFINE NAME=Orca-PA-Calibration-Test CENTER=0,0 POLYGON=[[5,5],[369,5],[369,359],[5,359],[5,5]]
M73 P0 R6
;TYPE:Custom
START_PRINT EXTRUDER_TEMP=255 BED_TEMP=70
G90
G21
M83 ; use relative distances for extrusion
; filament start gcode
SET_PRESSURE_ADVANCE ADVANCE=0; Override pressure advance value
M106 S0
;LAYER_CHANGE
;Z:0.25
;HEIGHT:0.25
;BEFORE_LAYER_CHANGE
;0.25
G92 E0

G1 E-1 F2400
;AFTER_LAYER_CHANGE
;0.25
;_SET_FAN_SPEED_CHANGING_LAYER
SET_VELOCITY_LIMIT ACCEL=500 ACCEL_TO_DECEL=250
;CUSTOM_GCODE
; start pressure advance pattern for layer
G1 E-1
G1 X141.261 Y155.007 F21000
G1 E1 F1800
G1 Z.25 F21000
SET_PRESSURE_ADVANCE ADVANCE=0.01; Override pressure advance value
G1 E-1 F2400
G1 X141.261 Y155.007 F21000
G1 E1 F1800

G1 X141.261 Y197.433 E2.1882

G1 X221.739 Y197.433 E4.15072

M73 P1 R6
G1 X221.739 Y155.007 E2.1882

G1 X141.261 Y155.007 E4.15072
M73 P2 R6
G1 E-1 F2400
G1 X141.768 Y155.513 F21000
G1 E1 F1800

G1 X141.768 Y196.927 E2.13597

M73 P3 R5
G1 X221.232 Y196.927 E4.09849

G1 X221.232 Y155.513 E2.13597

M73 P4 R5
G1 X141.768 Y155.513 E4.09849
G1 E-1 F2400
G1 X142.274 Y156.019 F21000
G1 E1 F1800

G1 X142.274 Y196.421 E2.08374

M73 P5 R5
G1 X220.726 Y196.421 E4.04626

M73 P6 R5
G1 X220.726 Y156.019 E2.08374

G1 X142.274 Y156.019 E4.04626
M73 P7 R5
G1 E-1 F2400
G1 X141.261 Y197.94 F21000
G1 E1 F1800

G1 X141.261 Y214.446 E.85134

G1 X198.328 Y214.446 E2.94331

G1 X198.328 Y197.94 E.85134

M73 P8 R5
G1 X141.261 Y197.94 E2.94331
G1 E-1 F2400
G1 X141.768 Y198.446 F21000
G1 E1 F1800

G1 X141.768 Y213.94 E.79911

G1 X197.822 Y213.94 E2.89108

M73 P9 R5
G1 X197.822 Y198.446 E.79911

G1 X141.768 Y198.446 E2.89108
M73 P10 R5
G1 E-1 F2400
G1 X142.274 Y198.952 F21000
G1 E1 F1800

G1 X142.274 Y213.433 E.74687

G1 X197.316 Y213.433 E2.83885

G1 X197.316 Y198.952 E.74687

G1 X142.274 Y198.952 E2.83885
M73 P11 R5
G1 E-1 F2400
G1 X142.647 Y199.326 F21000
G1 E1 F1800
G1 E-1 F2400
G1 X143.363 Y199.326 F21000
G1 E1 F1800

G1 X142.647 Y200.042 E.05223
G1 E-1 F2400
G1 X142.647 Y200.758 F21000
G1 E1 F1800

G1 X144.08 Y199.326 E.10446
G1 E-1 F2400
G1 X144.796 Y199.326 F21000
G1 E1 F1800

G1 X142.647 Y201.474 E.15669
G1 E-1 F2400
G1 X142.647 Y202.19 F21000
G1 E1 F1800

G1 X145.512 Y199.326 E.20893
G1 E-1 F2400
G1 X146.228 Y199.326 F21000
G1 E1 F1800

G1 X142.647 Y202.906 E.26116
G1 E-1 F2400
G1 X142.647 Y203.622 F21000
G1 E1 F1800

G1 X146.944 Y199.326 E.31339
G1 E-1 F2400
G1 X147.66 Y199.326 F21000
G1 E1 F1800

G1 X142.647 Y204.338 E.36562
G1 E-1 F2400
G1 X142.647 Y205.054 F21000
G1 E1 F1800

G1 X148.376 Y199.326 E.41785
M73 P12 R5
G1 E-1 F2400
G1 X149.092 Y199.326 F21000
G1 E1 F1800

G1 X142.647 Y205.77 E.47008
G1 E-1 F2400
G1 X142.647 Y206.486 F21000
G1 E1 F1800

G1 X149.808 Y199.326 E.52231
G1 E-1 F2400
G1 X150.524 Y199.326 F21000
G1 E1 F1800

G1 X142.647 Y207.203 E.57454
G1 E-1 F2400
G1 X142.647 Y207.919 F21000
G1 E1 F1800

G1 X151.24 Y199.326 E.62678
G1 E-1 F2400
G1 X151.957 Y199.326 F21000
G1 E1 F1800

G1 X142.647 Y208.635 E.67901
G1 E-1 F2400
G1 X142.647 Y209.351 F21000
G1 E1 F1800

G1 X152.673 Y199.326 E.73124
G1 E-1 F2400
G1 X153.389 Y199.326 F21000
G1 E1 F1800

G1 X142.647 Y210.067 E.78347
M73 P13 R5
G1 E-1 F2400
G1 X142.647 Y210.783 F21000
G1 E1 F1800

G1 X154.105 Y199.326 E.8357
G1 E-1 F2400
G1 X154.821 Y199.326 F21000
G1 E1 F1800

G1 X142.647 Y211.499 E.88793
G1 E-1 F2400
G1 X142.647 Y212.215 F21000
G1 E1 F1800

G1 X155.537 Y199.326 E.94016
G1 E-1 F2400
G1 X156.253 Y199.326 F21000
G1 E1 F1800

G1 X142.647 Y212.931 E.9924
G1 E-1 F2400
G1 X143.235 Y213.06 F21000
G1 E1 F1800

G1 X156.969 Y199.326 E1.00178
M73 P14 R5
G1 E-1 F2400
G1 X157.685 Y199.326 F21000
G1 E1 F1800

G1 X143.951 Y213.06 E1.00178
G1 E-1 F2400
G1 X144.667 Y213.06 F21000
G1 E1 F1800

G1 X158.401 Y199.326 E1.00178
G1 E-1 F2400
G1 X159.117 Y199.326 F21000
G1 E1 F1800

G1 X145.383 Y213.06 E1.00178
G1 E-1 F2400
G1 X146.099 Y213.06 F21000
G1 E1 F1800

G1 X159.833 Y199.326 E1.00178
M73 P15 R5
G1 E-1 F2400
G1 X160.55 Y199.326 F21000
G1 E1 F1800

G1 X146.815 Y213.06 E1.00178
G1 E-1 F2400
G1 X147.531 Y213.06 F21000
G1 E1 F1800

G1 X161.266 Y199.326 E1.00178
G1 E-1 F2400
G1 X161.982 Y199.326 F21000
G1 E1 F1800

G1 X148.247 Y213.06 E1.00178
G1 E-1 F2400
G1 X148.964 Y213.06 F21000
G1 E1 F1800

G1 X162.698 Y199.326 E1.00178
G1 E-1 F2400
G1 X163.414 Y199.326 F21000
G1 E1 F1800

G1 X149.68 Y213.06 E1.00178
M73 P16 R5
G1 E-1 F2400
G1 X150.396 Y213.06 F21000
G1 E1 F1800

G1 X164.13 Y199.326 E1.00178
G1 E-1 F2400
G1 X164.846 Y199.326 F21000
G1 E1 F1800

G1 X151.112 Y213.06 E1.00178
G1 E-1 F2400
G1 X151.828 Y213.06 F21000
G1 E1 F1800

G1 X165.562 Y199.326 E1.00178
G1 E-1 F2400
G1 X166.278 Y199.326 F21000
G1 E1 F1800

G1 X152.544 Y213.06 E1.00178
M73 P17 R5
G1 E-1 F2400
G1 X153.26 Y213.06 F21000
G1 E1 F1800

G1 X166.994 Y199.326 E1.00178
G1 E-1 F2400
G1 X167.71 Y199.326 F21000
G1 E1 F1800

G1 X153.976 Y213.06 E1.00178
G1 E-1 F2400
G1 X154.692 Y213.06 F21000
G1 E1 F1800

G1 X168.427 Y199.326 E1.00178
G1 E-1 F2400
G1 X169.143 Y199.326 F21000
G1 E1 F1800

G1 X155.408 Y213.06 E1.00178
G1 E-1 F2400
G1 X156.124 Y213.06 F21000
G1 E1 F1800

G1 X169.859 Y199.326 E1.00178
M73 P18 R5
G1 E-1 F2400
G1 X170.575 Y199.326 F21000
G1 E1 F1800

G1 X156.84 Y213.06 E1.00178
G1 E-1 F2400
G1 X157.557 Y213.06 F21000
G1 E1 F1800

G1 X171.291 Y199.326 E1.00178
G1 E-1 F2400
G1 X172.007 Y199.326 F21000
G1 E1 F1800

G1 X158.273 Y213.06 E1.00178
G1 E-1 F2400
G1 X158.989 Y213.06 F21000
G1 E1 F1800

G1 X172.723 Y199.326 E1.00178
G1 E-1 F2400
G1 X173.439 Y199.326 F21000
M73 P19 R5
G1 E1 F1800

G1 X159.705 Y213.06 E1.00178
M73 P19 R4
G1 E-1 F2400
G1 X160.421 Y213.06 F21000
G1 E1 F1800

G1 X174.155 Y199.326 E1.00178
G1 E-1 F2400
G1 X174.871 Y199.326 F21000
G1 E1 F1800

G1 X161.137 Y213.06 E1.00178
G1 E-1 F2400
G1 X161.853 Y213.06 F21000
G1 E1 F1800

G1 X175.587 Y199.326 E1.00178
G1 E-1 F2400
G1 X176.303 Y199.326 F21000
G1 E1 F1800

G1 X162.569 Y213.06 E1.00178
M73 P20 R4
G1 E-1 F2400
G1 X163.285 Y213.06 F21000
G1 E1 F1800

G1 X177.02 Y199.326 E1.00178
G1 E-1 F2400
G1 X177.736 Y199.326 F21000
G1 E1 F1800

G1 X164.001 Y213.06 E1.00178
G1 E-1 F2400
G1 X164.717 Y213.06 F21000
G1 E1 F1800

G1 X178.452 Y199.326 E1.00178
G1 E-1 F2400
G1 X179.168 Y199.326 F21000
G1 E1 F1800

G1 X165.434 Y213.06 E1.00178
G1 E-1 F2400
G1 X166.15 Y213.06 F21000
G1 E1 F1800

G1 X179.884 Y199.326 E1.00178
M73 P21 R4
G1 E-1 F2400
G1 X180.6 Y199.326 F21000
G1 E1 F1800

G1 X166.866 Y213.06 E1.00178
G1 E-1 F2400
G1 X167.582 Y213.06 F21000
G1 E1 F1800

G1 X181.316 Y199.326 E1.00178
G1 E-1 F2400
G1 X182.032 Y199.326 F21000
G1 E1 F1800

G1 X168.298 Y213.06 E1.00178
G1 E-1 F2400
G1 X169.014 Y213.06 F21000
G1 E1 F1800

G1 X182.748 Y199.326 E1.00178
M73 P22 R4
G1 E-1 F2400
G1 X183.464 Y199.326 F21000
G1 E1 F1800

G1 X169.73 Y213.06 E1.00178
G1 E-1 F2400
G1 X170.446 Y213.06 F21000
G1 E1 F1800

G1 X184.18 Y199.326 E1.00178
G1 E-1 F2400
G1 X184.896 Y199.326 F21000
G1 E1 F1800

G1 X171.162 Y213.06 E1.00178
G1 E-1 F2400
G1 X171.878 Y213.06 F21000
G1 E1 F1800

G1 X185.613 Y199.326 E1.00178
G1 E-1 F2400
G1 X186.329 Y199.326 F21000
G1 E1 F1800

G1 X172.594 Y213.06 E1.00178
M73 P23 R4
G1 E-1 F2400
G1 X173.31 Y213.06 F21000
G1 E1 F1800

G1 X187.045 Y199.326 E1.00178
G1 E-1 F2400
G1 X187.761 Y199.326 F21000
G1 E1 F1800

G1 X174.027 Y213.06 E1.00178
G1 E-1 F2400
G1 X174.743 Y213.06 F21000
G1 E1 F1800

G1 X188.477 Y199.326 E1.00178
G1 E-1 F2400
G1 X189.193 Y199.326 F21000
G1 E1 F1800

G1 X175.459 Y213.06 E1.00178
M73 P24 R4
G1 E-1 F2400
G1 X176.175 Y213.06 F21000
G1 E1 F1800

G1 X189.909 Y199.326 E1.00178
G1 E-1 F2400
G1 X190.625 Y199.326 F21000
G1 E1 F1800

G1 X176.891 Y213.06 E1.00178
G1 E-1 F2400
G1 X177.607 Y213.06 F21000
G1 E1 F1800

G1 X191.341 Y199.326 E1.00178
G1 E-1 F2400
G1 X192.057 Y199.326 F21000
G1 E1 F1800

G1 X178.323 Y213.06 E1.00178
G1 E-1 F2400
G1 X179.039 Y213.06 F21000
G1 E1 F1800

G1 X192.773 Y199.326 E1.00178
M73 P25 R4
G1 E-1 F2400
G1 X193.49 Y199.326 F21000
G1 E1 F1800

G1 X179.755 Y213.06 E1.00178
G1 E-1 F2400
G1 X180.471 Y213.06 F21000
G1 E1 F1800

G1 X194.206 Y199.326 E1.00178
G1 E-1 F2400
G1 X194.922 Y199.326 F21000
G1 E1 F1800

G1 X181.187 Y213.06 E1.00178
G1 E-1 F2400
G1 X181.904 Y213.06 F21000
G1 E1 F1800

G1 X195.638 Y199.326 E1.00178
G1 E-1 F2400
M73 P26 R4
G1 X196.354 Y199.326 F21000
G1 E1 F1800

G1 X182.62 Y213.06 E1.00178
G1 E-1 F2400
G1 X183.336 Y213.06 F21000
G1 E1 F1800

G1 X196.942 Y199.453 E.99247
G1 E-1 F2400
G1 X196.942 Y200.169 F21000
G1 E1 F1800

G1 X184.052 Y213.06 E.94024
G1 E-1 F2400
G1 X184.768 Y213.06 F21000
G1 E1 F1800

G1 X196.942 Y200.885 E.88801
G1 E-1 F2400
G1 X196.942 Y201.601 F21000
G1 E1 F1800

G1 X185.484 Y213.06 E.83578
M73 P27 R4
G1 E-1 F2400
G1 X186.2 Y213.06 F21000
G1 E1 F1800

G1 X196.942 Y202.318 E.78355
G1 E-1 F2400
G1 X196.942 Y203.034 F21000
G1 E1 F1800

G1 X186.916 Y213.06 E.73131
G1 E-1 F2400
G1 X187.632 Y213.06 F21000
G1 E1 F1800

G1 X196.942 Y203.75 E.67908
G1 E-1 F2400
G1 X196.942 Y204.466 F21000
G1 E1 F1800

G1 X188.348 Y213.06 E.62685
G1 E-1 F2400
G1 X189.064 Y213.06 F21000
G1 E1 F1800

G1 X196.942 Y205.182 E.57462
G1 E-1 F2400
G1 X196.942 Y205.898 F21000
G1 E1 F1800

G1 X189.78 Y213.06 E.52239
G1 E-1 F2400
G1 X190.497 Y213.06 F21000
M73 P28 R4
G1 E1 F1800

G1 X196.942 Y206.614 E.47016
G1 E-1 F2400
G1 X196.942 Y207.33 F21000
G1 E1 F1800

G1 X191.213 Y213.06 E.41793
G1 E-1 F2400
G1 X191.929 Y213.06 F21000
G1 E1 F1800

G1 X196.942 Y208.046 E.36569
G1 E-1 F2400
G1 X196.942 Y208.762 F21000
G1 E1 F1800

G1 X192.645 Y213.06 E.31346
G1 E-1 F2400
G1 X193.361 Y213.06 F21000
G1 E1 F1800

G1 X196.942 Y209.478 E.26123
G1 E-1 F2400
G1 X196.942 Y210.194 F21000
G1 E1 F1800

G1 X194.077 Y213.06 E.209
G1 E-1 F2400
G1 X194.793 Y213.06 F21000
G1 E1 F1800

G1 X196.942 Y210.911 E.15677
G1 E-1 F2400
G1 X196.942 Y211.627 F21000
G1 E1 F1800

G1 X195.509 Y213.06 E.10454
G1 E-1 F2400
G1 X196.225 Y213.06 F21000
G1 E1 F1800

G1 X196.942 Y212.343 E.05231
G1 E-1 F2400
G1 X145.22 Y156.393 F21000
M73 P29 R4
G1 E1 F1800
SET_PRESSURE_ADVANCE ADVANCE=0.01; Override pressure advance value

G1 X165.047 Y176.22 E1.13202

G1 X145.22 Y196.047 E1.13202
G1 E-1 F2400
G1 X145.796 Y156.393 F21000
G1 E1 F1800

G1 X165.623 Y176.22 E1.13202

G1 X145.796 Y196.047 E1.13202
M73 P30 R4
G1 E-1 F2400
G1 X146.371 Y156.393 F21000
G1 E1 F1800

G1 X166.199 Y176.22 E1.13202

G1 X146.371 Y196.047 E1.13202
G1 E-1 F2400
G1 X148.821 Y156.393 F21000
M73 P31 R4
G1 E1 F1800
SET_PRESSURE_ADVANCE ADVANCE=0.012; Override pressure advance value

G1 X168.649 Y176.22 E1.13202

G1 X148.821 Y196.047 E1.13202
G1 E-1 F2400
G1 X149.397 Y156.393 F21000
G1 E1 F1800

G1 X169.224 Y176.22 E1.13202

M73 P32 R4
G1 X149.397 Y196.047 E1.13202
G1 E-1 F2400
G1 X149.973 Y156.393 F21000
G1 E1 F1800

G1 X169.8 Y176.22 E1.13202

G1 X149.973 Y196.047 E1.13202
G1 E-1 F2400
G1 X152.423 Y156.393 F21000
M73 P33 R4
G1 E1 F1800
SET_PRESSURE_ADVANCE ADVANCE=0.014; Override pressure advance value

G1 X172.25 Y176.22 E1.13202

G1 X152.423 Y196.047 E1.13202
G1 E-1 F2400
G1 X152.999 Y156.393 F21000
G1 E1 F1800

G1 X172.826 Y176.22 E1.13202

M73 P34 R4
G1 X152.999 Y196.047 E1.13202
G1 E-1 F2400
G1 X153.574 Y156.393 F21000
G1 E1 F1800

G1 X173.401 Y176.22 E1.13202

G1 X153.574 Y196.047 E1.13202
M73 P35 R4
G1 E-1 F2400
G1 X156.024 Y156.393 F21000
G1 E1 F1800
SET_PRESSURE_ADVANCE ADVANCE=0.016; Override pressure advance value

G1 X175.851 Y176.22 E1.13202

M73 P35 R3
G1 X156.024 Y196.047 E1.13202
G1 E-1 F2400
G1 X156.6 Y156.393 F21000
G1 E1 F1800

G1 X176.427 Y176.22 E1.13202

M73 P36 R3
G1 X156.6 Y196.047 E1.13202
G1 E-1 F2400
G1 X157.176 Y156.393 F21000
G1 E1 F1800

G1 X177.003 Y176.22 E1.13202

G1 X157.176 Y196.047 E1.13202
M73 P37 R3
G1 E-1 F2400
G1 X159.626 Y156.393 F21000
G1 E1 F1800
SET_PRESSURE_ADVANCE ADVANCE=0.018; Override pressure advance value

G1 X179.453 Y176.22 E1.13202

G1 X159.626 Y196.047 E1.13202
G1 E-1 F2400
G1 X160.201 Y156.393 F21000
G1 E1 F1800

G1 X180.029 Y176.22 E1.13202

M73 P38 R3
G1 X160.201 Y196.047 E1.13202
G1 E-1 F2400
G1 X160.777 Y156.393 F21000
G1 E1 F1800

G1 X180.604 Y176.22 E1.13202

G1 X160.777 Y196.047 E1.13202
M73 P39 R3
G1 E-1 F2400
G1 X163.227 Y156.393 F21000
G1 E1 F1800
SET_PRESSURE_ADVANCE ADVANCE=0.02; Override pressure advance value

G1 X183.054 Y176.22 E1.13202

G1 X163.227 Y196.047 E1.13202
G1 E-1 F2400
G1 X163.803 Y156.393 F21000
M73 P40 R3
G1 E1 F1800

G1 X183.63 Y176.22 E1.13202

G1 X163.803 Y196.047 E1.13202
G1 E-1 F2400
G1 X164.378 Y156.393 F21000
G1 E1 F1800

G1 X184.206 Y176.22 E1.13202

G1 X164.378 Y196.047 E1.13202
M73 P41 R3
G1 E-1 F2400
G1 X166.828 Y156.393 F21000
G1 E1 F1800
SET_PRESSURE_ADVANCE ADVANCE=0.022; Override pressure advance value

G1 X186.656 Y176.22 E1.13202

G1 X166.828 Y196.047 E1.13202
G1 E-1 F2400
G1 X167.404 Y156.393 F21000
M73 P42 R3
G1 E1 F1800

G1 X187.231 Y176.22 E1.13202

G1 X167.404 Y196.047 E1.13202
G1 E-1 F2400
G1 X167.98 Y156.393 F21000
G1 E1 F1800

G1 X187.807 Y176.22 E1.13202

M73 P43 R3
G1 X167.98 Y196.047 E1.13202
G1 E-1 F2400
G1 X170.43 Y156.393 F21000
G1 E1 F1800
SET_PRESSURE_ADVANCE ADVANCE=0.024; Override pressure advance value

G1 X190.257 Y176.22 E1.13202

G1 X170.43 Y196.047 E1.13202
M73 P44 R3
G1 E-1 F2400
G1 X171.006 Y156.393 F21000
G1 E1 F1800

G1 X190.833 Y176.22 E1.13202

G1 X171.006 Y196.047 E1.13202
G1 E-1 F2400
G1 X171.581 Y156.393 F21000
G1 E1 F1800

G1 X191.408 Y176.22 E1.13202

M73 P45 R3
G1 X171.581 Y196.047 E1.13202
G1 E-1 F2400
G1 X174.031 Y156.393 F21000
G1 E1 F1800
SET_PRESSURE_ADVANCE ADVANCE=0.026; Override pressure advance value

G1 X193.858 Y176.22 E1.13202

G1 X174.031 Y196.047 E1.13202
M73 P46 R3
G1 E-1 F2400
G1 X174.607 Y156.393 F21000
G1 E1 F1800

G1 X194.434 Y176.22 E1.13202

G1 X174.607 Y196.047 E1.13202
G1 E-1 F2400
G1 X175.183 Y156.393 F21000
G1 E1 F1800

G1 X195.01 Y176.22 E1.13202

M73 P47 R3
G1 X175.183 Y196.047 E1.13202
G1 E-1 F2400
G1 X177.633 Y156.393 F21000
G1 E1 F1800
SET_PRESSURE_ADVANCE ADVANCE=0.028; Override pressure advance value

G1 X197.46 Y176.22 E1.13202

G1 X177.633 Y196.047 E1.13202
M73 P48 R3
G1 E-1 F2400
G1 X178.208 Y156.393 F21000
G1 E1 F1800

G1 X198.036 Y176.22 E1.13202

G1 X178.208 Y196.047 E1.13202
G1 E-1 F2400
G1 X178.784 Y156.393 F21000
G1 E1 F1800

M73 P49 R3
G1 X198.611 Y176.22 E1.13202

G1 X178.784 Y196.047 E1.13202
G1 E-1 F2400
G1 X181.234 Y156.393 F21000
G1 E1 F1800
SET_PRESSURE_ADVANCE ADVANCE=0.03; Override pressure advance value

G1 X201.061 Y176.22 E1.13202

G1 X181.234 Y196.047 E1.13202
M73 P50 R3
G1 E-1 F2400
G1 X181.81 Y156.393 F21000
G1 E1 F1800

G1 X201.637 Y176.22 E1.13202

G1 X181.81 Y196.047 E1.13202
G1 E-1 F2400
G1 X182.385 Y156.393 F21000
M73 P51 R3
G1 E1 F1800

G1 X202.213 Y176.22 E1.13202

G1 X182.385 Y196.047 E1.13202
M73 P51 R2
G1 E-1 F2400
G1 X184.835 Y156.393 F21000
G1 E1 F1800
SET_PRESSURE_ADVANCE ADVANCE=0.032; Override pressure advance value

G1 X204.663 Y176.22 E1.13202

M73 P52 R2
G1 X184.835 Y196.047 E1.13202
G1 E-1 F2400
G1 X185.411 Y156.393 F21000
G1 E1 F1800

G1 X205.238 Y176.22 E1.13202

G1 X185.411 Y196.047 E1.13202
G1 E-1 F2400
G1 X185.987 Y156.393 F21000
M73 P53 R2
G1 E1 F1800

G1 X205.814 Y176.22 E1.13202

G1 X185.987 Y196.047 E1.13202
G1 E-1 F2400
G1 X188.437 Y156.393 F21000
G1 E1 F1800
SET_PRESSURE_ADVANCE ADVANCE=0.034; Override pressure advance value

G1 X208.264 Y176.22 E1.13202

M73 P54 R2
G1 X188.437 Y196.047 E1.13202
G1 E-1 F2400
G1 X189.013 Y156.393 F21000
G1 E1 F1800

G1 X208.84 Y176.22 E1.13202

G1 X189.013 Y196.047 E1.13202
M73 P55 R2
G1 E-1 F2400
G1 X189.588 Y156.393 F21000
G1 E1 F1800

G1 X209.415 Y176.22 E1.13202

G1 X189.588 Y196.047 E1.13202
G1 E-1 F2400
