; HEADER_BLOCK_START
; generated by OrcaSlicer 1.8.1 on 2023-12-30 at 23:03:05
; total layer number: 125
; HEADER_BLOCK_END

; THUMBNAIL_BLOCK_START

;
; THUMBNAIL_BLOCK_END

; THUMBNAIL_BLOCK_START

;
; THUMBNAIL_BLOCK_END

; external perimeters extrusion width = 0.44mm
; perimeters extrusion width = 0.44mm
; infill extrusion width = 0.44mm
; solid infill extrusion width = 0.44mm
; top infill extrusion width = 0.44mm
; first layer extrusion width = 0.44mm

; EXECUTABLE_BLOCK_START
EXCLUDE_OBJECT_DEFINE NAME=Cube_id_0_copy_0 CENTER=190,180 POLYGON=[[171.3,161.3],[208.7,161.3],[208.7,198.7],[171.3,198.7],[171.3,161.3]]
M73 P0 R8
;TYPE:Custom
START_PRINT EXTRUDER_TEMP=260 BED_TEMP=70
G90
G21
M83 ; use relative distances for extrusion
; filament start gcode
SET_PRESSURE_ADVANCE ADVANCE=0; Override pressure advance value
M106 S0
;LAYER_CHANGE
;Z:0.3
;HEIGHT:0.3
;BEFORE_LAYER_CHANGE
;0.3
G92 E0

G1 E-1 F2400
;AFTER_LAYER_CHANGE
;0.3
;_SET_FAN_SPEED_CHANGING_LAYER
SET_VELOCITY_LIMIT ACCEL=500 ACCEL_TO_DECEL=250
G1 X166.709 Y157.243 F21000
G1 Z.3
G1 E1 F1800
;TYPE:Skirt
;WIDTH:0.44
G1 F3000
G1 X168.442 Y155.88 E.1033
G1 X171.3 Y155.173 E.13793
G1 X208.7 Y155.173 E1.75216
G1 X210.869 Y155.57 E.1033
G1 X212.757 Y156.709 E.1033
G1 X214.12 Y158.442 E.1033
G1 X214.827 Y161.3 E.13793
G1 X214.827 Y198.7 E1.75216
G1 X214.43 Y200.869 E.1033
G1 X213.291 Y202.757 E.1033
G1 X211.558 Y204.12 E.1033
G1 X208.7 Y204.827 E.13793
G1 X171.3 Y204.827 E1.75216
G1 X169.131 Y204.43 E.1033
G1 X167.243 Y203.291 E.1033
G1 X165.88 Y201.558 E.1033
G1 X165.173 Y198.7 E.13793
G1 X165.173 Y161.3 E1.75216
M73 P1 R7
G1 X165.57 Y159.131 E.1033
G1 X166.688 Y157.277 E.10142
G1 X167.021 Y157.486 F21000
G1 F3000
G1 X167.08 Y157.392 E.0052
G1 X168.797 Y156.122 E.10005
G1 X171.3 Y155.549 E.1203
G1 X208.7 Y155.549 E1.75216
G1 X210.799 Y155.945 E.10005
G1 X212.608 Y157.08 E.10005
G1 X213.878 Y158.797 E.10005
G1 X214.451 Y161.3 E.1203
G1 X214.451 Y198.7 E1.75216
G1 X214.055 Y200.799 E.10005
G1 X212.92 Y202.608 E.10005
G1 X211.203 Y203.878 E.10005
G1 X208.7 Y204.451 E.1203
G1 X171.3 Y204.451 E1.75216
G1 X169.201 Y204.055 E.10005
G1 X167.392 Y202.92 E.10005
G1 X166.122 Y201.203 E.10005
G1 X165.549 Y198.7 E.1203
G1 X165.549 Y161.3 E1.75216
M73 P2 R7
G1 X165.945 Y159.201 E.10005
G1 X167 Y157.52 E.09298
G1 X167.328 Y157.735 F21000
G1 F3000
G1 X167.451 Y157.547 E.01052
G1 X169.149 Y156.374 E.0967
G1 X171.3 Y155.924 E.10295
G1 X208.7 Y155.924 E1.75216
G1 X210.726 Y156.321 E.0967
G1 X212.453 Y157.451 E.0967
G1 X213.626 Y159.149 E.0967
G1 X214.076 Y161.3 E.10295
G1 X214.076 Y198.7 E1.75216
G1 X213.679 Y200.726 E.0967
G1 X212.549 Y202.453 E.0967
G1 X210.851 Y203.626 E.0967
G1 X208.7 Y204.076 E.10295
G1 X171.3 Y204.076 E1.75216
G1 X169.274 Y203.679 E.0967
G1 X167.547 Y202.549 E.0967
G1 X166.374 Y200.851 E.0967
G1 X165.924 Y198.7 E.10295
G1 X165.924 Y161.3 E1.75216
G1 X166.321 Y159.274 E.0967
G1 X167.306 Y157.769 E.08431
; printing object Cube id:0 copy 0
G1 E-1 F2400
EXCLUDE_OBJECT_START NAME=Cube_id_0_copy_0
G1 X208.48 Y198.48 F21000
M73 P3 R7
G1 E1 F1800
;TYPE:Outer wall
;WIDTH:0.44
G1 F600
G1 X171.52 Y198.48 E1.73155
G1 X171.52 Y161.52 E1.73155
M73 P4 R7
G1 X208.48 Y161.52 E1.73155
M73 P5 R7
G1 X208.48 Y198.48 E1.73155
M73 P6 R7
G1 E-1 F2400
G1 X207.605 Y161.633 F21000
G1 E1 F1800
;TYPE:Bottom surface
;WIDTH:0.441219
G1 F900
G1 X208.198 Y162.226 E.03941
G1 X208.198 Y162.758 E.02505
G1 X207.242 Y161.802 E.0636
G1 X206.709 Y161.802 E.02505
G1 X208.198 Y163.291 E.09902
G1 X208.198 Y163.824 E.02505
G1 X206.176 Y161.802 E.13444
G1 X205.643 Y161.802 E.02505
G1 X208.198 Y164.357 E.16987
G1 X208.198 Y164.89 E.02505
G1 X205.11 Y161.802 E.20529
G1 X204.577 Y161.802 E.02505
G1 X208.198 Y165.423 E.24072
G1 X208.198 Y165.956 E.02505
G1 X204.044 Y161.802 E.27614
G1 X203.511 Y161.802 E.02505
G1 X208.198 Y166.489 E.31156
G1 X208.198 Y167.022 E.02505
G1 X202.978 Y161.802 E.34699
G1 X202.445 Y161.802 E.02505
G1 X208.198 Y167.555 E.38241
G1 X208.198 Y168.088 E.02505
G1 X201.912 Y161.802 E.41783
M73 P7 R7
G1 X201.379 Y161.802 E.02505
G1 X208.198 Y168.621 E.45326
G1 X208.198 Y169.154 E.02505
G1 X200.846 Y161.802 E.48868
G1 X200.313 Y161.802 E.02505
G1 X208.198 Y169.687 E.52411
G1 X208.198 Y170.22 E.02505
G1 X199.781 Y161.802 E.55953
G1 X199.248 Y161.802 E.02505
G1 X208.198 Y170.752 E.59495
G1 X208.198 Y171.285 E.02505
G1 X198.715 Y161.802 E.63038
M73 P8 R7
G1 X198.182 Y161.802 E.02505
G1 X208.198 Y171.818 E.6658
G1 X208.198 Y172.351 E.02505
G1 X197.649 Y161.802 E.70122
G1 X197.116 Y161.802 E.02505
G1 X208.198 Y172.884 E.73665
G1 X208.198 Y173.417 E.02505
G1 X196.583 Y161.802 E.77207
M73 P9 R7
G1 X196.05 Y161.802 E.02505
G1 X208.198 Y173.95 E.8075
G1 X208.198 Y174.483 E.02505
G1 X195.517 Y161.802 E.84292
G1 X194.984 Y161.802 E.02505
G1 X208.198 Y175.016 E.87834
G1 X208.198 Y175.549 E.02505
G1 X194.451 Y161.802 E.91377
M73 P10 R7
G1 X193.918 Y161.802 E.02505
G1 X208.198 Y176.082 E.94919
G1 X208.198 Y176.615 E.02505
G1 X193.385 Y161.802 E.98461
G1 X192.852 Y161.802 E.02505
G1 X208.198 Y177.148 E1.02004
G1 X208.198 Y177.681 E.02505
G1 X192.319 Y161.802 E1.05546
M73 P11 R7
G1 X191.787 Y161.802 E.02505
G1 X208.198 Y178.213 E1.09089
G1 X208.198 Y178.746 E.02505
G1 X191.254 Y161.802 E1.12631
G1 X190.721 Y161.802 E.02505
G1 X208.198 Y179.279 E1.16173
M73 P12 R7
G1 X208.198 Y179.812 E.02505
G1 X190.188 Y161.802 E1.19716
G1 X189.655 Y161.802 E.02505
G1 X208.198 Y180.345 E1.23258
M73 P13 R7
G1 X208.198 Y180.878 E.02505
G1 X189.122 Y161.802 E1.268
G1 X188.589 Y161.802 E.02505
G1 X208.198 Y181.411 E1.30343
M73 P13 R6
G1 X208.198 Y181.944 E.02505
G1 X188.056 Y161.802 E1.33885
M73 P14 R6
G1 X187.523 Y161.802 E.02505
G1 X208.198 Y182.477 E1.37428
G1 X208.198 Y183.01 E.02505
G1 X186.99 Y161.802 E1.4097
M73 P15 R6
G1 X186.457 Y161.802 E.02505
G1 X208.198 Y183.543 E1.44512
G1 X208.198 Y184.076 E.02505
G1 X185.924 Y161.802 E1.48055
G1 X185.391 Y161.802 E.02505
G1 X208.198 Y184.609 E1.51597
M73 P16 R6
G1 X208.198 Y185.142 E.02505
G1 X184.858 Y161.802 E1.55139
G1 X184.326 Y161.802 E.02505
G1 X208.198 Y185.674 E1.58682
M73 P17 R6
G1 X208.198 Y186.207 E.02505
G1 X183.793 Y161.802 E1.62224
G1 X183.26 Y161.802 E.02505
G1 X208.198 Y186.74 E1.65767
M73 P18 R6
G1 X208.198 Y187.273 E.02505
G1 X182.727 Y161.802 E1.69309
G1 X182.194 Y161.802 E.02505
G1 X208.198 Y187.806 E1.72851
M73 P19 R6
G1 X208.198 Y188.339 E.02505
G1 X181.661 Y161.802 E1.76394
G1 X181.128 Y161.802 E.02505
G1 X208.198 Y188.872 E1.79936
M73 P20 R6
G1 X208.198 Y189.405 E.02505
G1 X180.595 Y161.802 E1.83478
G1 X180.062 Y161.802 E.02505
G1 X208.198 Y189.938 E1.87021
M73 P21 R6
G1 X208.198 Y190.471 E.02505
G1 X179.529 Y161.802 E1.90563
M73 P22 R6
G1 X178.996 Y161.802 E.02505
G1 X208.198 Y191.004 E1.94106
G1 X208.198 Y191.537 E.02505
G1 X178.463 Y161.802 E1.97648
M73 P23 R6
G1 X177.93 Y161.802 E.02505
G1 X208.198 Y192.07 E2.0119
G1 X208.198 Y192.603 E.02505
G1 X177.397 Y161.802 E2.04733
M73 P24 R6
G1 X176.865 Y161.802 E.02505
G1 X208.198 Y193.135 E2.08275
M73 P25 R6
G1 X208.198 Y193.668 E.02505
G1 X176.332 Y161.802 E2.11817
G1 X175.799 Y161.802 E.02505
G1 X208.198 Y194.201 E2.1536
M73 P26 R5
G1 X208.198 Y194.734 E.02505
G1 X175.266 Y161.802 E2.18902
G1 X174.733 Y161.802 E.02505
G1 X208.198 Y195.267 E2.22445
M73 P27 R5
G1 X208.198 Y195.8 E.02505
G1 X174.2 Y161.802 E2.25987
M73 P28 R5
G1 X173.667 Y161.802 E.02505
G1 X208.198 Y196.333 E2.29529
G1 X208.198 Y196.866 E.02505
G1 X173.134 Y161.802 E2.33072
M73 P29 R5
G1 X172.601 Y161.802 E.02505
G1 X208.198 Y197.399 E2.36614
M73 P30 R5
G1 X208.198 Y197.932 E.02505
G1 X172.068 Y161.802 E2.40157
M73 P31 R5
G1 X171.802 Y161.802 E.01252
G1 X171.802 Y162.068 E.01252
G1 X207.932 Y198.198 E2.40156
G1 X207.399 Y198.198 E.02505
G1 X171.802 Y162.601 E2.36614
M73 P32 R5
G1 X171.802 Y163.134 E.02505
G1 X206.866 Y198.198 E2.33072
M73 P33 R5
G1 X206.333 Y198.198 E.02505
G1 X171.802 Y163.667 E2.29529
G1 X171.802 Y164.2 E.02505
G1 X205.8 Y198.198 E2.25987
M73 P34 R5
G1 X205.267 Y198.198 E.02505
G1 X171.802 Y164.733 E2.22445
M73 P35 R5
G1 X171.802 Y165.266 E.02505
G1 X204.734 Y198.198 E2.18902
G1 X204.201 Y198.198 E.02505
G1 X171.802 Y165.799 E2.1536
M73 P36 R5
G1 X171.802 Y166.332 E.02505
G1 X203.668 Y198.198 E2.11817
M73 P37 R5
G1 X203.135 Y198.198 E.02505
G1 X171.802 Y166.865 E2.08275
G1 X171.802 Y167.397 E.02505
G1 X202.603 Y198.198 E2.04733
M73 P38 R4
G1 X202.07 Y198.198 E.02505
G1 X171.802 Y167.93 E2.0119
G1 X171.802 Y168.463 E.02505
G1 X201.537 Y198.198 E1.97648
M73 P39 R4
G1 X201.004 Y198.198 E.02505
G1 X171.802 Y168.996 E1.94106
M73 P40 R4
G1 X171.802 Y169.529 E.02505
G1 X200.471 Y198.198 E1.90563
G1 X199.938 Y198.198 E.02505
G1 X171.802 Y170.062 E1.87021
M73 P41 R4
G1 X171.802 Y170.595 E.02505
G1 X199.405 Y198.198 E1.83478
G1 X198.872 Y198.198 E.02505
G1 X171.802 Y171.128 E1.79936
M73 P42 R4
G1 X171.802 Y171.661 E.02505
G1 X198.339 Y198.198 E1.76394
G1 X197.806 Y198.198 E.02505
G1 X171.802 Y172.194 E1.72851
M73 P43 R4
G1 X171.802 Y172.727 E.02505
G1 X197.273 Y198.198 E1.69309
G1 X196.74 Y198.198 E.02505
G1 X171.802 Y173.26 E1.65767
M73 P44 R4
G1 X171.802 Y173.793 E.02505
G1 X196.207 Y198.198 E1.62224
G1 X195.674 Y198.198 E.02505
G1 X171.802 Y174.326 E1.58682
M73 P45 R4
G1 X171.802 Y174.858 E.02505
G1 X195.142 Y198.198 E1.55139
G1 X194.609 Y198.198 E.02505
G1 X171.802 Y175.391 E1.51597
M73 P46 R4
G1 X171.802 Y175.924 E.02505
G1 X194.076 Y198.198 E1.48055
G1 X193.543 Y198.198 E.02505
G1 X171.802 Y176.457 E1.44512
M73 P47 R4
G1 X171.802 Y176.99 E.02505
G1 X193.01 Y198.198 E1.4097
G1 X192.477 Y198.198 E.02505
G1 X171.802 Y177.523 E1.37428
G1 X171.802 Y178.056 E.02505
G1 X191.944 Y198.198 E1.33885
M73 P48 R4
G1 X191.411 Y198.198 E.02505
G1 X171.802 Y178.589 E1.30343
G1 X171.802 Y179.122 E.02505
G1 X190.878 Y198.198 E1.268
M73 P49 R4
G1 X190.345 Y198.198 E.02505
G1 X171.802 Y179.655 E1.23258
G1 X171.802 Y180.188 E.02505
G1 X189.812 Y198.198 E1.19716
G1 X189.279 Y198.198 E.02505
G1 X171.802 Y180.721 E1.16173
M73 P50 R4
G1 X171.802 Y181.254 E.02505
G1 X188.746 Y198.198 E1.12631
G1 X188.213 Y198.198 E.02505
G1 X171.802 Y181.787 E1.09089
M73 P50 R3
G1 X171.802 Y182.32 E.02505
G1 X187.681 Y198.198 E1.05546
M73 P51 R3
G1 X187.148 Y198.198 E.02505
G1 X171.802 Y182.852 E1.02004
G1 X171.802 Y183.385 E.02505
G1 X186.615 Y198.198 E.98461
G1 X186.082 Y198.198 E.02505
G1 X171.802 Y183.918 E.94919
M73 P52 R3
G1 X171.802 Y184.451 E.02505
G1 X185.549 Y198.198 E.91377
G1 X185.016 Y198.198 E.02505
G1 X171.802 Y184.984 E.87834
G1 X171.802 Y185.517 E.02505
G1 X184.483 Y198.198 E.84292
G1 X183.95 Y198.198 E.02505
G1 X171.802 Y186.05 E.8075
M73 P53 R3
G1 X171.802 Y186.583 E.02505
G1 X183.417 Y198.198 E.77207
G1 X182.884 Y198.198 E.02505
G1 X171.802 Y187.116 E.73665
G1 X171.802 Y187.649 E.02505
G1 X182.351 Y198.198 E.70122
G1 X181.818 Y198.198 E.02505
G1 X171.802 Y188.182 E.6658
G1 X171.802 Y188.715 E.02505
G1 X181.285 Y198.198 E.63038
M73 P54 R3
G1 X180.752 Y198.198 E.02505
G1 X171.802 Y189.248 E.59495
G1 X171.802 Y189.781 E.02505
G1 X180.219 Y198.198 E.55953
G1 X179.687 Y198.198 E.02505
G1 X171.802 Y190.313 E.5241
G1 X171.802 Y190.846 E.02505
G1 X179.154 Y198.198 E.48868
G1 X178.621 Y198.198 E.02505
G1 X171.802 Y191.379 E.45326
G1 X171.802 Y191.912 E.02505
G1 X178.088 Y198.198 E.41783
M73 P55 R3
G1 X177.555 Y198.198 E.02505
G1 X171.802 Y192.445 E.38241
G1 X171.802 Y192.978 E.02505
G1 X177.022 Y198.198 E.34699
G1 X176.489 Y198.198 E.02505
G1 X171.802 Y193.511 E.31156
G1 X171.802 Y194.044 E.02505
G1 X175.956 Y198.198 E.27614
G1 X175.423 Y198.198 E.02505
G1 X171.802 Y194.577 E.24071
G1 X171.802 Y195.11 E.02505
G1 X174.89 Y198.198 E.20529
G1 X174.357 Y198.198 E.02505
G1 X171.802 Y195.643 E.16987
G1 X171.802 Y196.176 E.02505
G1 X173.824 Y198.198 E.13444
G1 X173.291 Y198.198 E.02505
G1 X171.802 Y196.709 E.09902
G1 X171.802 Y197.242 E.02505
G1 X172.758 Y198.198 E.0636
G1 X172.226 Y198.198 E.02505
G1 X171.633 Y197.605 E.03941
; stop printing object Cube id:0 copy 0
M106 S102
;LAYER_CHANGE
;Z:0.6
;HEIGHT:0.3
;BEFORE_LAYER_CHANGE
;0.6
G92 E0

G1 E-1 F2400
EXCLUDE_OBJECT_END NAME=Cube_id_0_copy_0
;AFTER_LAYER_CHANGE
;0.6
;_SET_FAN_SPEED_CHANGING_LAYER
SET_VELOCITY_LIMIT ACCEL=5000 ACCEL_TO_DECEL=2500
M104 S255 ; set nozzle temperature
M140 S70 ; set bed temperature
; printing object Cube id:0 copy 0
EXCLUDE_OBJECT_START NAME=Cube_id_0_copy_0
G1 X208.48 Y198.48 Z.6 F21000
G1 E1 F1800
SET_VELOCITY_LIMIT ACCEL=3000 ACCEL_TO_DECEL=1500
;TYPE:Outer wall
;WIDTH:0.44
G1 F7200
G1 X171.52 Y198.48 E1.73155
M73 P56 R3
G1 X171.52 Y161.52 E1.73155
G1 X208.48 Y161.52 E1.73155
G1 X208.48 Y198.48 E1.73155
SET_VELOCITY_LIMIT ACCEL=5000 ACCEL_TO_DECEL=2500
G1 X208.367 Y197.608 F21000
;TYPE:Internal solid infill
;WIDTH:0.440131
G1 F12000
G1 X207.777 Y198.198 E.03914
G1 X207.245 Y198.198 E.0249
G1 X208.198 Y197.245 E.06316
G1 X208.198 Y196.714 E.0249
G1 X206.714 Y198.198 E.09838
G1 X206.183 Y198.198 E.0249
G1 X208.198 Y196.183 E.1336
G1 X208.198 Y195.651 E.0249
G1 X205.651 Y198.198 E.16882
G1 X205.12 Y198.198 E.0249
G1 X208.198 Y195.12 E.20404
G1 X208.198 Y194.588 E.0249
G1 X204.588 Y198.198 E.23926
G1 X204.057 Y198.198 E.0249
G1 X208.198 Y194.057 E.27448
G1 X208.198 Y193.526 E.0249
G1 X203.526 Y198.198 E.30969
G1 X202.994 Y198.198 E.0249
G1 X208.198 Y192.994 E.34491
G1 X208.198 Y192.463 E.0249
G1 X202.463 Y198.198 E.38013
G1 X201.931 Y198.198 E.0249
G1 X208.198 Y191.931 E.41535
G1 X208.198 Y191.4 E.0249
G1 X201.4 Y198.198 E.45057
G1 X200.869 Y198.198 E.0249
G1 X208.198 Y190.869 E.48579
G1 X208.198 Y190.337 E.0249
G1 X200.337 Y198.198 E.52101
G1 X199.806 Y198.198 E.0249
G1 X208.198 Y189.806 E.55623
G1 X208.198 Y189.274 E.0249
G1 X199.274 Y198.198 E.59145
G1 X198.743 Y198.198 E.0249
G1 X208.198 Y188.743 E.62667
G1 X208.198 Y188.212 E.0249
G1 X198.212 Y198.198 E.66189
G1 X197.68 Y198.198 E.0249
G1 X208.198 Y187.68 E.69711
G1 X208.198 Y187.149 E.0249
G1 X197.149 Y198.198 E.73233
G1 X196.618 Y198.198 E.0249
G1 X208.198 Y186.618 E.76755
G1 X208.198 Y186.086 E.0249
G1 X196.086 Y198.198 E.80277
G1 X195.555 Y198.198 E.0249
G1 X208.198 Y185.555 E.83799
G1 X208.198 Y185.023 E.0249
G1 X195.023 Y198.198 E.87321
G1 X194.492 Y198.198 E.0249
G1 X208.198 Y184.492 E.90843
G1 X208.198 Y183.961 E.0249
G1 X193.961 Y198.198 E.94365
G1 X193.429 Y198.198 E.0249
G1 X208.198 Y183.429 E.97887
G1 X208.198 Y182.898 E.0249
G1 X192.898 Y198.198 E1.01408
G1 X192.366 Y198.198 E.0249
G1 X208.198 Y182.366 E1.0493
G1 X208.198 Y181.835 E.0249
G1 X191.835 Y198.198 E1.08452
G1 X191.304 Y198.198 E.0249
G1 X208.198 Y181.304 E1.11974
G1 X208.198 Y180.772 E.0249
G1 X190.772 Y198.198 E1.15496
M73 P57 R3
G1 X190.241 Y198.198 E.0249
G1 X208.198 Y180.241 E1.19018
G1 X208.198 Y179.709 E.0249
G1 X189.709 Y198.198 E1.2254
G1 X189.178 Y198.198 E.0249
G1 X208.198 Y179.178 E1.26062
G1 X208.198 Y178.647 E.0249
G1 X188.647 Y198.198 E1.29584
G1 X188.115 Y198.198 E.0249
G1 X208.198 Y178.115 E1.33106
G1 X208.198 Y177.584 E.0249
G1 X187.584 Y198.198 E1.36628
G1 X187.053 Y198.198 E.0249
G1 X208.198 Y177.053 E1.4015
G1 X208.198 Y176.521 E.0249
G1 X186.521 Y198.198 E1.43672
G1 X185.99 Y198.198 E.0249
G1 X208.198 Y175.99 E1.47194
G1 X208.198 Y175.458 E.0249
G1 X185.458 Y198.198 E1.50716
G1 X184.927 Y198.198 E.0249
G1 X208.198 Y174.927 E1.54238
G1 X208.198 Y174.396 E.0249
G1 X184.396 Y198.198 E1.5776
G1 X183.864 Y198.198 E.0249
G1 X208.198 Y173.864 E1.61282
G1 X208.198 Y173.333 E.0249
G1 X183.333 Y198.198 E1.64804
G1 X182.801 Y198.198 E.0249
G1 X208.198 Y172.801 E1.68326
G1 X208.198 Y172.27 E.0249
G1 X182.27 Y198.198 E1.71848
G1 X181.739 Y198.198 E.0249
G1 X208.198 Y171.739 E1.75369
G1 X208.198 Y171.207 E.0249
G1 X181.207 Y198.198 E1.78891
G1 X180.676 Y198.198 E.0249
G1 X208.198 Y170.676 E1.82413
G1 X208.198 Y170.144 E.0249
G1 X180.144 Y198.198 E1.85935
G1 X179.613 Y198.198 E.0249
G1 X208.198 Y169.613 E1.89457
G1 X208.198 Y169.082 E.0249
G1 X179.082 Y198.198 E1.92979
M73 P58 R3
G1 X178.55 Y198.198 E.0249
G1 X208.198 Y168.55 E1.96501
G1 X208.198 Y168.019 E.0249
G1 X178.019 Y198.198 E2.00023
G1 X177.487 Y198.198 E.0249
G1 X208.198 Y167.487 E2.03545
G1 X208.198 Y166.956 E.0249
G1 X176.956 Y198.198 E2.07067
