; HEADER_BLOCK_START
; generated by OrcaSlicer 1.8.1 on 2024-01-03 at 20:42:56
; total layer number: 4
; HEADER_BLOCK_END

; THUMBNAIL_BLOCK_START

;
; THUMBNAIL_BLOCK_END

; THUMBNAIL_BLOCK_START

;
; THUMBNAIL_BLOCK_END

; external perimeters extrusion width = 0.40mm
; perimeters extrusion width = 0.40mm
; infill extrusion width = 0.40mm
; solid infill extrusion width = 0.40mm
; top infill extrusion width = 0.40mm
; first layer extrusion width = 0.56mm

; EXECUTABLE_BLOCK_START
EXCLUDE_OBJECT_DEFINE NAME=Orca-PA-Calibration-Test CENTER=0,0 POLYGON=[[5,5],[369,5],[369,359],[5,359],[5,5]]
M73 P0 R13
;TYPE:Custom
START_PRINT EXTRUDER_TEMP=255 BED_TEMP=70
G90
G21
M83 ; use relative distances for extrusion
; filament start gcode
SET_PRESSURE_ADVANCE ADVANCE=0; Override pressure advance value
M106 S0
;LAYER_CHANGE
;Z:0.25
;HEIGHT:0.25
;BEFORE_LAYER_CHANGE
;0.25
G92 E0

G1 E-1 F2400
;AFTER_LAYER_CHANGE
;0.25
;_SET_FAN_SPEED_CHANGING_LAYER
SET_VELOCITY_LIMIT ACCEL=500 ACCEL_TO_DECEL=250
;CUSTOM_GCODE
; start pressure advance pattern for layer
G1 E-1
G1 X105.247 Y155.007 F21000
G1 E1 F1800
G1 Z.25 F21000
SET_PRESSURE_ADVANCE ADVANCE=0.01; Override pressure advance value
G1 E-1 F2400
G1 X105.247 Y155.007 F21000
G1 E1 F1800

G1 X105.247 Y197.433 E2.1882

G1 X257.753 Y197.433 E7.86566

G1 X257.753 Y155.007 E2.1882

M73 P1 R13
G1 X105.247 Y155.007 E7.86566
G1 E-1 F2400
G1 X105.754 Y155.513 F21000
G1 E1 F1800

G1 X105.754 Y196.927 E2.13597

M73 P2 R13
G1 X257.246 Y196.927 E7.81343

G1 X257.246 Y155.513 E2.13597

M73 P2 R12
G1 X105.754 Y155.513 E7.81343
M73 P3 R12
G1 E-1 F2400
G1 X106.26 Y156.019 F21000
G1 E1 F1800

G1 X106.26 Y196.421 E2.08374

G1 X256.74 Y196.421 E7.7612

M73 P4 R12
G1 X256.74 Y156.019 E2.08374

G1 X106.26 Y156.019 E7.7612
M73 P5 R12
G1 E-1 F2400
G1 X105.247 Y197.94 F21000
G1 E1 F1800

G1 X105.247 Y214.446 E.85134

G1 X234.342 Y214.446 E6.65824

G1 X234.342 Y197.94 E.85134

G1 X105.247 Y197.94 E6.65824
M73 P6 R12
G1 E-1 F2400
G1 X105.754 Y198.446 F21000
G1 E1 F1800

G1 X105.754 Y213.94 E.79911

G1 X233.836 Y213.94 E6.60601

M73 P7 R12
G1 X233.836 Y198.446 E.79911

G1 X105.754 Y198.446 E6.60601
G1 E-1 F2400
G1 X106.26 Y198.952 F21000
G1 E1 F1800

G1 X106.26 Y213.433 E.74687

G1 X233.33 Y213.433 E6.55378

M73 P8 R12
G1 X233.33 Y198.952 E.74687

G1 X106.26 Y198.952 E6.55378
G1 E-1 F2400
G1 X106.633 Y199.326 F21000
G1 E1 F1800
G1 E-1 F2400
G1 X107.35 Y199.326 F21000
G1 E1 F1800

G1 X106.633 Y200.042 E.05223
G1 E-1 F2400
G1 X106.633 Y200.758 F21000
G1 E1 F1800

G1 X108.066 Y199.326 E.10446
G1 E-1 F2400
G1 X108.782 Y199.326 F21000
G1 E1 F1800

G1 X106.633 Y201.474 E.15669
G1 E-1 F2400
G1 X106.633 Y202.19 F21000
G1 E1 F1800

G1 X109.498 Y199.326 E.20893
G1 E-1 F2400
G1 X110.214 Y199.326 F21000
G1 E1 F1800

G1 X106.633 Y202.906 E.26116
M73 P9 R12
G1 E-1 F2400
G1 X106.633 Y203.622 F21000
G1 E1 F1800

G1 X110.93 Y199.326 E.31339
G1 E-1 F2400
G1 X111.646 Y199.326 F21000
G1 E1 F1800

G1 X106.633 Y204.338 E.36562
G1 E-1 F2400
G1 X106.633 Y205.054 F21000
G1 E1 F1800

G1 X112.362 Y199.326 E.41785
G1 E-1 F2400
G1 X113.078 Y199.326 F21000
G1 E1 F1800

G1 X106.633 Y205.77 E.47008
G1 E-1 F2400
G1 X106.633 Y206.486 F21000
G1 E1 F1800

G1 X113.794 Y199.326 E.52231
G1 E-1 F2400
G1 X114.51 Y199.326 F21000
G1 E1 F1800

G1 X106.633 Y207.203 E.57454
G1 E-1 F2400
G1 X106.633 Y207.919 F21000
G1 E1 F1800

G1 X115.226 Y199.326 E.62678
G1 E-1 F2400
G1 X115.943 Y199.326 F21000
G1 E1 F1800

G1 X106.633 Y208.635 E.67901
G1 E-1 F2400
G1 X106.633 Y209.351 F21000
G1 E1 F1800

G1 X116.659 Y199.326 E.73124
G1 E-1 F2400
G1 X117.375 Y199.326 F21000
G1 E1 F1800

G1 X106.633 Y210.067 E.78347
G1 E-1 F2400
G1 X106.633 Y210.783 F21000
G1 E1 F1800

G1 X118.091 Y199.326 E.8357
G1 E-1 F2400
G1 X118.807 Y199.326 F21000
G1 E1 F1800

G1 X106.633 Y211.499 E.88793
G1 E-1 F2400
G1 X106.633 Y212.215 F21000
G1 E1 F1800

G1 X119.523 Y199.326 E.94016
G1 E-1 F2400
G1 X120.239 Y199.326 F21000
G1 E1 F1800

G1 X106.633 Y212.931 E.9924
M73 P10 R12
G1 E-1 F2400
G1 X107.221 Y213.06 F21000
G1 E1 F1800

G1 X120.955 Y199.326 E1.00178
G1 E-1 F2400
G1 X121.671 Y199.326 F21000
G1 E1 F1800

G1 X107.937 Y213.06 E1.00178
M73 P10 R11
G1 E-1 F2400
G1 X108.653 Y213.06 F21000
G1 E1 F1800

G1 X122.387 Y199.326 E1.00178
G1 E-1 F2400
G1 X123.103 Y199.326 F21000
G1 E1 F1800

G1 X109.369 Y213.06 E1.00178
G1 E-1 F2400
G1 X110.085 Y213.06 F21000
G1 E1 F1800

G1 X123.82 Y199.326 E1.00178
G1 E-1 F2400
G1 X124.536 Y199.326 F21000
G1 E1 F1800

G1 X110.801 Y213.06 E1.00178
G1 E-1 F2400
G1 X111.517 Y213.06 F21000
G1 E1 F1800

G1 X125.252 Y199.326 E1.00178
G1 E-1 F2400
G1 X125.968 Y199.326 F21000
G1 E1 F1800

G1 X112.233 Y213.06 E1.00178
G1 E-1 F2400
G1 X112.95 Y213.06 F21000
G1 E1 F1800

G1 X126.684 Y199.326 E1.00178
G1 E-1 F2400
G1 X127.4 Y199.326 F21000
G1 E1 F1800

G1 X113.666 Y213.06 E1.00178
M73 P11 R11
G1 E-1 F2400
G1 X114.382 Y213.06 F21000
G1 E1 F1800

G1 X128.116 Y199.326 E1.00178
G1 E-1 F2400
G1 X128.832 Y199.326 F21000
G1 E1 F1800

G1 X115.098 Y213.06 E1.00178
G1 E-1 F2400
G1 X115.814 Y213.06 F21000
G1 E1 F1800

G1 X129.548 Y199.326 E1.00178
G1 E-1 F2400
G1 X130.264 Y199.326 F21000
G1 E1 F1800

G1 X116.53 Y213.06 E1.00178
G1 E-1 F2400
G1 X117.246 Y213.06 F21000
G1 E1 F1800

G1 X130.98 Y199.326 E1.00178
G1 E-1 F2400
G1 X131.696 Y199.326 F21000
G1 E1 F1800

G1 X117.962 Y213.06 E1.00178
G1 E-1 F2400
G1 X118.678 Y213.06 F21000
G1 E1 F1800

G1 X132.413 Y199.326 E1.00178
G1 E-1 F2400
G1 X133.129 Y199.326 F21000
G1 E1 F1800

G1 X119.394 Y213.06 E1.00178
G1 E-1 F2400
G1 X120.11 Y213.06 F21000
G1 E1 F1800

G1 X133.845 Y199.326 E1.00178
G1 E-1 F2400
G1 X134.561 Y199.326 F21000
G1 E1 F1800

G1 X120.827 Y213.06 E1.00178
M73 P12 R11
G1 E-1 F2400
G1 X121.543 Y213.06 F21000
G1 E1 F1800

G1 X135.277 Y199.326 E1.00178
G1 E-1 F2400
G1 X135.993 Y199.326 F21000
G1 E1 F1800

G1 X122.259 Y213.06 E1.00178
G1 E-1 F2400
G1 X122.975 Y213.06 F21000
G1 E1 F1800

G1 X136.709 Y199.326 E1.00178
G1 E-1 F2400
G1 X137.425 Y199.326 F21000
G1 E1 F1800

G1 X123.691 Y213.06 E1.00178
G1 E-1 F2400
G1 X124.407 Y213.06 F21000
G1 E1 F1800

G1 X138.141 Y199.326 E1.00178
G1 E-1 F2400
G1 X138.857 Y199.326 F21000
G1 E1 F1800

G1 X125.123 Y213.06 E1.00178
G1 E-1 F2400
G1 X125.839 Y213.06 F21000
G1 E1 F1800

G1 X139.573 Y199.326 E1.00178
G1 E-1 F2400
G1 X140.29 Y199.326 F21000
G1 E1 F1800

G1 X126.555 Y213.06 E1.00178
G1 E-1 F2400
G1 X127.271 Y213.06 F21000
G1 E1 F1800

G1 X141.006 Y199.326 E1.00178
G1 E-1 F2400
G1 X141.722 Y199.326 F21000
G1 E1 F1800

G1 X127.987 Y213.06 E1.00178
M73 P13 R11
G1 E-1 F2400
G1 X128.703 Y213.06 F21000
G1 E1 F1800

G1 X142.438 Y199.326 E1.00178
G1 E-1 F2400
G1 X143.154 Y199.326 F21000
G1 E1 F1800

G1 X129.42 Y213.06 E1.00178
G1 E-1 F2400
G1 X130.136 Y213.06 F21000
G1 E1 F1800

G1 X143.87 Y199.326 E1.00178
G1 E-1 F2400
G1 X144.586 Y199.326 F21000
G1 E1 F1800

G1 X130.852 Y213.06 E1.00178
G1 E-1 F2400
G1 X131.568 Y213.06 F21000
G1 E1 F1800

G1 X145.302 Y199.326 E1.00178
G1 E-1 F2400
G1 X146.018 Y199.326 F21000
G1 E1 F1800

G1 X132.284 Y213.06 E1.00178
G1 E-1 F2400
G1 X133 Y213.06 F21000
G1 E1 F1800

G1 X146.734 Y199.326 E1.00178
G1 E-1 F2400
G1 X147.45 Y199.326 F21000
G1 E1 F1800

G1 X133.716 Y213.06 E1.00178
G1 E-1 F2400
G1 X134.432 Y213.06 F21000
G1 E1 F1800

G1 X148.166 Y199.326 E1.00178
G1 E-1 F2400
G1 X148.883 Y199.326 F21000
M73 P14 R11
G1 E1 F1800

G1 X135.148 Y213.06 E1.00178
G1 E-1 F2400
G1 X135.864 Y213.06 F21000
G1 E1 F1800

G1 X149.599 Y199.326 E1.00178
G1 E-1 F2400
G1 X150.315 Y199.326 F21000
G1 E1 F1800

G1 X136.58 Y213.06 E1.00178
G1 E-1 F2400
G1 X137.297 Y213.06 F21000
G1 E1 F1800

G1 X151.031 Y199.326 E1.00178
G1 E-1 F2400
G1 X151.747 Y199.326 F21000
G1 E1 F1800

G1 X138.013 Y213.06 E1.00178
G1 E-1 F2400
G1 X138.729 Y213.06 F21000
G1 E1 F1800

G1 X152.463 Y199.326 E1.00178
G1 E-1 F2400
G1 X153.179 Y199.326 F21000
G1 E1 F1800

G1 X139.445 Y213.06 E1.00178
G1 E-1 F2400
G1 X140.161 Y213.06 F21000
G1 E1 F1800

G1 X153.895 Y199.326 E1.00178
G1 E-1 F2400
G1 X154.611 Y199.326 F21000
G1 E1 F1800

G1 X140.877 Y213.06 E1.00178
G1 E-1 F2400
G1 X141.593 Y213.06 F21000
G1 E1 F1800

G1 X155.327 Y199.326 E1.00178
M73 P15 R11
G1 E-1 F2400
G1 X156.043 Y199.326 F21000
G1 E1 F1800

G1 X142.309 Y213.06 E1.00178
G1 E-1 F2400
G1 X143.025 Y213.06 F21000
G1 E1 F1800

G1 X156.759 Y199.326 E1.00178
G1 E-1 F2400
G1 X157.476 Y199.326 F21000
G1 E1 F1800

G1 X143.741 Y213.06 E1.00178
G1 E-1 F2400
G1 X144.457 Y213.06 F21000
G1 E1 F1800

G1 X158.192 Y199.326 E1.00178
G1 E-1 F2400
G1 X158.908 Y199.326 F21000
G1 E1 F1800

G1 X145.173 Y213.06 E1.00178
G1 E-1 F2400
G1 X145.89 Y213.06 F21000
G1 E1 F1800

G1 X159.624 Y199.326 E1.00178
G1 E-1 F2400
G1 X160.34 Y199.326 F21000
G1 E1 F1800

G1 X146.606 Y213.06 E1.00178
G1 E-1 F2400
G1 X147.322 Y213.06 F21000
G1 E1 F1800

G1 X161.056 Y199.326 E1.00178
G1 E-1 F2400
G1 X161.772 Y199.326 F21000
G1 E1 F1800

G1 X148.038 Y213.06 E1.00178
G1 E-1 F2400
G1 X148.754 Y213.06 F21000
G1 E1 F1800

G1 X162.488 Y199.326 E1.00178
M73 P16 R11
G1 E-1 F2400
G1 X163.204 Y199.326 F21000
G1 E1 F1800

G1 X149.47 Y213.06 E1.00178
G1 E-1 F2400
G1 X150.186 Y213.06 F21000
G1 E1 F1800

G1 X163.92 Y199.326 E1.00178
G1 E-1 F2400
G1 X164.636 Y199.326 F21000
G1 E1 F1800

G1 X150.902 Y213.06 E1.00178
G1 E-1 F2400
G1 X151.618 Y213.06 F21000
G1 E1 F1800

G1 X165.353 Y199.326 E1.00178
G1 E-1 F2400
G1 X166.069 Y199.326 F21000
G1 E1 F1800

G1 X152.334 Y213.06 E1.00178
G1 E-1 F2400
G1 X153.05 Y213.06 F21000
G1 E1 F1800

G1 X166.785 Y199.326 E1.00178
G1 E-1 F2400
G1 X167.501 Y199.326 F21000
G1 E1 F1800

G1 X153.767 Y213.06 E1.00178
G1 E-1 F2400
G1 X154.483 Y213.06 F21000
G1 E1 F1800

G1 X168.217 Y199.326 E1.00178
G1 E-1 F2400
G1 X168.933 Y199.326 F21000
G1 E1 F1800

G1 X155.199 Y213.06 E1.00178
G1 E-1 F2400
G1 X155.915 Y213.06 F21000
G1 E1 F1800

G1 X169.649 Y199.326 E1.00178
M73 P17 R11
G1 E-1 F2400
G1 X170.365 Y199.326 F21000
G1 E1 F1800

G1 X156.631 Y213.06 E1.00178
G1 E-1 F2400
G1 X157.347 Y213.06 F21000
G1 E1 F1800

G1 X171.081 Y199.326 E1.00178
G1 E-1 F2400
G1 X171.797 Y199.326 F21000
G1 E1 F1800

G1 X158.063 Y213.06 E1.00178
G1 E-1 F2400
G1 X158.779 Y213.06 F21000
G1 E1 F1800

G1 X172.513 Y199.326 E1.00178
G1 E-1 F2400
G1 X173.229 Y199.326 F21000
G1 E1 F1800

G1 X159.495 Y213.06 E1.00178
G1 E-1 F2400
G1 X160.211 Y213.06 F21000
G1 E1 F1800

G1 X173.946 Y199.326 E1.00178
G1 E-1 F2400
G1 X174.662 Y199.326 F21000
G1 E1 F1800

G1 X160.927 Y213.06 E1.00178
M73 P17 R10
G1 E-1 F2400
G1 X161.643 Y213.06 F21000
G1 E1 F1800

G1 X175.378 Y199.326 E1.00178
G1 E-1 F2400
G1 X176.094 Y199.326 F21000
G1 E1 F1800

G1 X162.36 Y213.06 E1.00178
G1 E-1 F2400
G1 X163.076 Y213.06 F21000
G1 E1 F1800

G1 X176.81 Y199.326 E1.00178
M73 P18 R10
G1 E-1 F2400
G1 X177.526 Y199.326 F21000
G1 E1 F1800

G1 X163.792 Y213.06 E1.00178
G1 E-1 F2400
G1 X164.508 Y213.06 F21000
G1 E1 F1800

G1 X178.242 Y199.326 E1.00178
G1 E-1 F2400
G1 X178.958 Y199.326 F21000
G1 E1 F1800

G1 X165.224 Y213.06 E1.00178
G1 E-1 F2400
G1 X165.94 Y213.06 F21000
G1 E1 F1800

G1 X179.674 Y199.326 E1.00178
G1 E-1 F2400
G1 X180.39 Y199.326 F21000
G1 E1 F1800

G1 X166.656 Y213.06 E1.00178
G1 E-1 F2400
G1 X167.372 Y213.06 F21000
G1 E1 F1800

G1 X181.106 Y199.326 E1.00178
G1 E-1 F2400
G1 X181.823 Y199.326 F21000
G1 E1 F1800

G1 X168.088 Y213.06 E1.00178
G1 E-1 F2400
G1 X168.804 Y213.06 F21000
G1 E1 F1800

G1 X182.539 Y199.326 E1.00178
G1 E-1 F2400
G1 X183.255 Y199.326 F21000
G1 E1 F1800

G1 X169.52 Y213.06 E1.00178
G1 E-1 F2400
G1 X170.236 Y213.06 F21000
G1 E1 F1800

G1 X183.971 Y199.326 E1.00178
M73 P19 R10
G1 E-1 F2400
G1 X184.687 Y199.326 F21000
G1 E1 F1800

G1 X170.953 Y213.06 E1.00178
G1 E-1 F2400
G1 X171.669 Y213.06 F21000
G1 E1 F1800

G1 X185.403 Y199.326 E1.00178
G1 E-1 F2400
G1 X186.119 Y199.326 F21000
G1 E1 F1800

G1 X172.385 Y213.06 E1.00178
G1 E-1 F2400
G1 X173.101 Y213.06 F21000
G1 E1 F1800

G1 X186.835 Y199.326 E1.00178
G1 E-1 F2400
G1 X187.551 Y199.326 F21000
G1 E1 F1800

G1 X173.817 Y213.06 E1.00178
G1 E-1 F2400
G1 X174.533 Y213.06 F21000
G1 E1 F1800

G1 X188.267 Y199.326 E1.00178
G1 E-1 F2400
G1 X188.983 Y199.326 F21000
G1 E1 F1800

G1 X175.249 Y213.06 E1.00178
G1 E-1 F2400
G1 X175.965 Y213.06 F21000
G1 E1 F1800

G1 X189.699 Y199.326 E1.00178
G1 E-1 F2400
G1 X190.416 Y199.326 F21000
G1 E1 F1800

G1 X176.681 Y213.06 E1.00178
G1 E-1 F2400
G1 X177.397 Y213.06 F21000
G1 E1 F1800

G1 X191.132 Y199.326 E1.00178
M73 P20 R10
G1 E-1 F2400
G1 X191.848 Y199.326 F21000
G1 E1 F1800

G1 X178.113 Y213.06 E1.00178
G1 E-1 F2400
G1 X178.83 Y213.06 F21000
G1 E1 F1800

G1 X192.564 Y199.326 E1.00178
G1 E-1 F2400
G1 X193.28 Y199.326 F21000
G1 E1 F1800

G1 X179.546 Y213.06 E1.00178
G1 E-1 F2400
G1 X180.262 Y213.06 F21000
G1 E1 F1800

G1 X193.996 Y199.326 E1.00178
G1 E-1 F2400
G1 X194.712 Y199.326 F21000
G1 E1 F1800

G1 X180.978 Y213.06 E1.00178
G1 E-1 F2400
G1 X181.694 Y213.06 F21000
G1 E1 F1800

G1 X195.428 Y199.326 E1.00178
G1 E-1 F2400
G1 X196.144 Y199.326 F21000
G1 E1 F1800

G1 X182.41 Y213.06 E1.00178
G1 E-1 F2400
G1 X183.126 Y213.06 F21000
G1 E1 F1800

G1 X196.86 Y199.326 E1.00178
G1 E-1 F2400
G1 X197.576 Y199.326 F21000
G1 E1 F1800

G1 X183.842 Y213.06 E1.00178
G1 E-1 F2400
G1 X184.558 Y213.06 F21000
G1 E1 F1800

M73 P21 R10
G1 X198.293 Y199.326 E1.00178
G1 E-1 F2400
G1 X199.009 Y199.326 F21000
G1 E1 F1800

G1 X185.274 Y213.06 E1.00178
G1 E-1 F2400
G1 X185.99 Y213.06 F21000
G1 E1 F1800

G1 X199.725 Y199.326 E1.00178
G1 E-1 F2400
G1 X200.441 Y199.326 F21000
G1 E1 F1800

G1 X186.706 Y213.06 E1.00178
G1 E-1 F2400
G1 X187.423 Y213.06 F21000
G1 E1 F1800

G1 X201.157 Y199.326 E1.00178
G1 E-1 F2400
G1 X201.873 Y199.326 F21000
G1 E1 F1800

G1 X188.139 Y213.06 E1.00178
G1 E-1 F2400
G1 X188.855 Y213.06 F21000
G1 E1 F1800

G1 X202.589 Y199.326 E1.00178
G1 E-1 F2400
G1 X203.305 Y199.326 F21000
G1 E1 F1800

G1 X189.571 Y213.06 E1.00178
G1 E-1 F2400
G1 X190.287 Y213.06 F21000
G1 E1 F1800

G1 X204.021 Y199.326 E1.00178
G1 E-1 F2400
G1 X204.737 Y199.326 F21000
G1 E1 F1800

G1 X191.003 Y213.06 E1.00178
M73 P22 R10
G1 E-1 F2400
G1 X191.719 Y213.06 F21000
G1 E1 F1800

G1 X205.453 Y199.326 E1.00178
G1 E-1 F2400
G1 X206.169 Y199.326 F21000
G1 E1 F1800

G1 X192.435 Y213.06 E1.00178
G1 E-1 F2400
G1 X193.151 Y213.06 F21000
G1 E1 F1800

G1 X206.886 Y199.326 E1.00178
G1 E-1 F2400
G1 X207.602 Y199.326 F21000
G1 E1 F1800

G1 X193.867 Y213.06 E1.00178
G1 E-1 F2400
G1 X194.583 Y213.06 F21000
G1 E1 F1800

G1 X208.318 Y199.326 E1.00178
G1 E-1 F2400
G1 X209.034 Y199.326 F21000
G1 E1 F1800

G1 X195.3 Y213.06 E1.00178
G1 E-1 F2400
G1 X196.016 Y213.06 F21000
G1 E1 F1800

G1 X209.75 Y199.326 E1.00178
G1 E-1 F2400
G1 X210.466 Y199.326 F21000
G1 E1 F1800

G1 X196.732 Y213.06 E1.00178
G1 E-1 F2400
G1 X197.448 Y213.06 F21000
G1 E1 F1800

G1 X211.182 Y199.326 E1.00178
G1 E-1 F2400
G1 X211.898 Y199.326 F21000
G1 E1 F1800

G1 X198.164 Y213.06 E1.00178
M73 P23 R10
G1 E-1 F2400
G1 X198.88 Y213.06 F21000
G1 E1 F1800

G1 X212.614 Y199.326 E1.00178
G1 E-1 F2400
G1 X213.33 Y199.326 F21000
G1 E1 F1800

G1 X199.596 Y213.06 E1.00178
G1 E-1 F2400
G1 X200.312 Y213.06 F21000
G1 E1 F1800

G1 X214.046 Y199.326 E1.00178
G1 E-1 F2400
G1 X214.762 Y199.326 F21000
G1 E1 F1800

G1 X201.028 Y213.06 E1.00178
G1 E-1 F2400
G1 X201.744 Y213.06 F21000
G1 E1 F1800

G1 X215.479 Y199.326 E1.00178
G1 E-1 F2400
G1 X216.195 Y199.326 F21000
G1 E1 F1800

G1 X202.46 Y213.06 E1.00178
G1 E-1 F2400
G1 X203.176 Y213.06 F21000
G1 E1 F1800

G1 X216.911 Y199.326 E1.00178
G1 E-1 F2400
G1 X217.627 Y199.326 F21000
G1 E1 F1800

G1 X203.893 Y213.06 E1.00178
G1 E-1 F2400
G1 X204.609 Y213.06 F21000
G1 E1 F1800

G1 X218.343 Y199.326 E1.00178
G1 E-1 F2400
G1 X219.059 Y199.326 F21000
G1 E1 F1800

G1 X205.325 Y213.06 E1.00178
M73 P24 R10
G1 E-1 F2400
G1 X206.041 Y213.06 F21000
G1 E1 F1800

G1 X219.775 Y199.326 E1.00178
G1 E-1 F2400
G1 X220.491 Y199.326 F21000
G1 E1 F1800

G1 X206.757 Y213.06 E1.00178
G1 E-1 F2400
G1 X207.473 Y213.06 F21000
G1 E1 F1800

G1 X221.207 Y199.326 E1.00178
G1 E-1 F2400
G1 X221.923 Y199.326 F21000
G1 E1 F1800

G1 X208.189 Y213.06 E1.00178
G1 E-1 F2400
G1 X208.905 Y213.06 F21000
G1 E1 F1800

G1 X222.639 Y199.326 E1.00178
