; HEADER_BLOCK_START
; generated by OrcaSlicer 1.8.1 on 2024-01-03 at 21:21:31
; total layer number: 107
; HEADER_BLOCK_END

; THUMBNAIL_BLOCK_START

;
; THUMBNAIL_BLOCK_END

; THUMBNAIL_BLOCK_START

;
; THUMBNAIL_BLOCK_END

; external perimeters extrusion width = 0.40mm
; perimeters extrusion width = 0.40mm
; infill extrusion width = 0.40mm
; solid infill extrusion width = 0.40mm
; top infill extrusion width = 0.40mm
; first layer extrusion width = 0.40mm

; EXECUTABLE_BLOCK_START
EXCLUDE_OBJECT_DEFINE NAME=retraction_tower.stl_id_0_copy_0 CENTER=187,182 POLYGON=[[167,177.5],[167.102,176.724],[167.402,176],[167.879,175.379],[168.5,174.902],[169.224,174.602],[170,174.5],[204,174.5],[204.776,174.602],[205.5,174.902],[206.121,175.379],[206.598,176],[206.898,176.724],[207,177.5],[207,186.5],[206.898,187.276],[206.598,188],[206.121,188.621],[205.5,189.098],[204.776,189.398],[204,189.5],[170,189.5],[169.224,189.398],[168.5,189.098],[167.879,188.621],[167.402,188],[167.102,187.276],[167,186.5],[167,177.5]]
M73 P0 R4
;TYPE:Custom
START_PRINT EXTRUDER_TEMP=255 BED_TEMP=70
G90
G21
M83 ; use relative distances for extrusion
; filament start gcode
SET_PRESSURE_ADVANCE ADVANCE=0.03; Override pressure advance value
M106 S0
;LAYER_CHANGE
;Z:0.2
;HEIGHT:0.2
;BEFORE_LAYER_CHANGE
;0.2
G92 E0

G1 E-1 F2400
;AFTER_LAYER_CHANGE
;0.2
;_SET_FAN_SPEED_CHANGING_LAYER
; Calib_Retraction_tower: Z_HEIGHT: 0.2, length:0
SET_VELOCITY_LIMIT ACCEL=500 ACCEL_TO_DECEL=250
; printing object retraction_tower.stl id:0 copy 0
EXCLUDE_OBJECT_START NAME=retraction_tower.stl_id_0_copy_0
G1 X205.979 Y175.521 F21000
G1 Z.2
G1 E1 F1800
;TYPE:Outer wall
;WIDTH:0.399999
G1 F3000
G1 X206.423 Y176.101 E.02126
G1 X206.703 Y176.776 E.02126
G1 X206.8 Y177.513 E.02164
G1 X206.8 Y186.487 E.26111
G1 X206.703 Y187.224 E.02164
G1 X206.423 Y187.899 E.02126
G1 X205.979 Y188.479 E.02126
G1 X205.399 Y188.923 E.02126
G1 X204.724 Y189.203 E.02126
G1 X203.987 Y189.3 E.02164
G1 X170.013 Y189.3 E.98855
M73 P1 R4
G1 X169.276 Y189.203 E.02164
G1 X168.601 Y188.923 E.02126
G1 X168.021 Y188.479 E.02126
G1 X167.577 Y187.899 E.02126
G1 X167.297 Y187.224 E.02126
G1 X167.2 Y186.487 E.02164
G1 X167.2 Y177.513 E.26111
G1 X167.297 Y176.776 E.02164
G1 X167.577 Y176.101 E.02126
G1 X168.021 Y175.521 E.02126
G1 X168.601 Y175.077 E.02126
G1 X169.276 Y174.797 E.02126
G1 X170.013 Y174.7 E.02164
G1 X203.987 Y174.7 E.98855
G1 X204.724 Y174.797 E.02164
G1 X205.399 Y175.077 E.02126
G1 X205.979 Y175.521 E.02126
G1 X205.724 Y175.776 F21000
;TYPE:Inner wall
G1 F3000
G1 X206.111 Y176.281 E.01852
G1 X206.355 Y176.869 E.01852
G1 X206.443 Y177.537 E.01959
G1 X206.443 Y186.463 E.25975
G1 X206.355 Y187.131 E.01959
G1 X206.111 Y187.719 E.01852
G1 X205.724 Y188.224 E.01852
G1 X205.219 Y188.611 E.01852
G1 X204.631 Y188.855 E.01852
G1 X203.963 Y188.943 E.01959
G1 X170.037 Y188.943 E.98719
M73 P2 R4
G1 X169.369 Y188.855 E.01959
G1 X168.781 Y188.611 E.01852
G1 X168.276 Y188.224 E.01852
G1 X167.889 Y187.719 E.01852
G1 X167.645 Y187.131 E.01852
G1 X167.557 Y186.463 E.01959
G1 X167.557 Y177.537 E.25975
G1 X167.645 Y176.869 E.01959
G1 X167.889 Y176.281 E.01852
G1 X168.276 Y175.776 E.01852
G1 X168.781 Y175.389 E.01852
G1 X169.369 Y175.145 E.01852
G1 X170.037 Y175.057 E.01959
G1 X203.963 Y175.057 E.98719
G1 X204.631 Y175.145 E.01959
G1 X205.219 Y175.389 E.01852
G1 X205.724 Y175.776 E.01852
G1 X204.266 Y175.205 F21000
;TYPE:Bottom surface
;WIDTH:0.4011
G1 F6300
G1 X206.108 Y177.048 E.07074
G1 X206.175 Y177.621 E.01566
G1 X203.879 Y175.325 E.08814
G1 X203.373 Y175.325 E.01375
G1 X206.175 Y178.127 E.10758
G1 X206.175 Y178.634 E.01375
G1 X202.866 Y175.325 E.12703
G1 X202.36 Y175.325 E.01375
G1 X206.175 Y179.14 E.14647
G1 X206.175 Y179.647 E.01375
G1 X201.853 Y175.325 E.16592
M73 P3 R4
G1 X201.346 Y175.325 E.01375
G1 X206.175 Y180.154 E.18536
G1 X206.175 Y180.66 E.01375
G1 X200.84 Y175.325 E.20481
G1 X200.333 Y175.325 E.01375
G1 X206.175 Y181.167 E.22425
G1 X206.175 Y181.673 E.01375
G1 X199.827 Y175.325 E.2437
G1 X199.32 Y175.325 E.01375
G1 X206.175 Y182.18 E.26314
G1 X206.175 Y182.686 E.01375
G1 X198.814 Y175.325 E.28259
G1 X198.307 Y175.325 E.01375
G1 X206.175 Y183.193 E.30203
G1 X206.175 Y183.699 E.01375
G1 X197.801 Y175.325 E.32148
G1 X197.294 Y175.325 E.01375
G1 X206.175 Y184.206 E.34092
M73 P4 R4
G1 X206.175 Y184.712 E.01375
G1 X196.788 Y175.325 E.36037
G1 X196.281 Y175.325 E.01375
G1 X206.175 Y185.219 E.37981
G1 X206.175 Y185.726 E.01375
G1 X195.774 Y175.325 E.39926
G1 X195.268 Y175.325 E.01375
G1 X206.175 Y186.232 E.4187
G3 X206.141 Y186.705 I-1.811 J.107 E.0129
G1 X194.761 Y175.325 E.43684
G1 X194.255 Y175.325 E.01375
G1 X206.064 Y187.134 E.45332
G1 X205.916 Y187.492 E.01052
G1 X193.748 Y175.325 E.46707
M73 P5 R3
G1 X193.242 Y175.325 E.01375
G1 X205.714 Y187.797 E.47878
G1 X205.533 Y188.033 E.00807
G1 X205.482 Y188.072 E.00174
G1 X192.735 Y175.325 E.48933
G1 X192.229 Y175.325 E.01375
G1 X205.196 Y188.292 E.49777
G3 X204.865 Y188.468 I-.494 J-.528 E.01028
G1 X191.722 Y175.325 E.50454
G1 X191.216 Y175.325 E.01375
G1 X204.494 Y188.603 E.50971
G1 X204.046 Y188.662 E.01225
G1 X190.709 Y175.325 E.51198
G1 X190.202 Y175.325 E.01375
G1 X203.553 Y188.675 E.51248
M73 P6 R3
G1 X203.046 Y188.675 E.01375
G1 X189.696 Y175.325 E.51248
G1 X189.189 Y175.325 E.01375
G1 X202.54 Y188.675 E.51248
G1 X202.033 Y188.675 E.01375
G1 X188.683 Y175.325 E.51248
G1 X188.176 Y175.325 E.01375
G1 X201.527 Y188.675 E.51248
G1 X201.02 Y188.675 E.01375
G1 X187.67 Y175.325 E.51248
G1 X187.163 Y175.325 E.01375
G1 X200.513 Y188.675 E.51248
M73 P7 R3
G1 X200.007 Y188.675 E.01375
G1 X186.657 Y175.325 E.51248
G1 X186.15 Y175.325 E.01375
G1 X199.5 Y188.675 E.51248
G1 X198.994 Y188.675 E.01375
G1 X185.644 Y175.325 E.51248
G1 X185.137 Y175.325 E.01375
G1 X198.487 Y188.675 E.51248
G1 X197.981 Y188.675 E.01375
G1 X184.63 Y175.325 E.51248
G1 X184.124 Y175.325 E.01375
G1 X197.474 Y188.675 E.51248
G1 X196.968 Y188.675 E.01375
G1 X183.617 Y175.325 E.51248
M73 P8 R3
G1 X183.111 Y175.325 E.01375
G1 X196.461 Y188.675 E.51248
G1 X195.955 Y188.675 E.01375
G1 X182.604 Y175.325 E.51248
G1 X182.098 Y175.325 E.01375
G1 X195.448 Y188.675 E.51248
G1 X194.941 Y188.675 E.01375
G1 X181.591 Y175.325 E.51248
G1 X181.085 Y175.325 E.01375
G1 X194.435 Y188.675 E.51248
G1 X193.928 Y188.675 E.01375
G1 X180.578 Y175.325 E.51248
M73 P9 R3
G1 X180.072 Y175.325 E.01375
G1 X193.422 Y188.675 E.51248
G1 X192.915 Y188.675 E.01375
G1 X179.565 Y175.325 E.51248
G1 X179.059 Y175.325 E.01375
G1 X192.409 Y188.675 E.51248
G1 X191.902 Y188.675 E.01375
G1 X178.552 Y175.325 E.51248
G1 X178.045 Y175.325 E.01375
G1 X191.396 Y188.675 E.51248
G1 X190.889 Y188.675 E.01375
G1 X177.539 Y175.325 E.51248
M73 P10 R3
G1 X177.032 Y175.325 E.01375
G1 X190.383 Y188.675 E.51248
G1 X189.876 Y188.675 E.01375
G1 X176.526 Y175.325 E.51248
G1 X176.019 Y175.325 E.01375
G1 X189.369 Y188.675 E.51248
G1 X188.863 Y188.675 E.01375
G1 X175.513 Y175.325 E.51248
G1 X175.006 Y175.325 E.01375
G1 X188.356 Y188.675 E.51248
G1 X187.85 Y188.675 E.01375
G1 X174.5 Y175.325 E.51248
G1 X173.993 Y175.325 E.01375
G1 X187.343 Y188.675 E.51248
M73 P11 R3
G1 X186.837 Y188.675 E.01375
G1 X173.487 Y175.325 E.51248
G1 X172.98 Y175.325 E.01375
G1 X186.33 Y188.675 E.51248
G1 X185.824 Y188.675 E.01375
G1 X172.473 Y175.325 E.51248
G1 X171.967 Y175.325 E.01375
G1 X185.317 Y188.675 E.51248
G1 X184.811 Y188.675 E.01375
G1 X171.46 Y175.325 E.51248
G1 X170.954 Y175.325 E.01375
G1 X184.304 Y188.675 E.51248
M73 P12 R3
G1 X183.798 Y188.675 E.01375
G1 X170.447 Y175.325 E.51248
G2 X169.954 Y175.338 I-.197 J1.88 E.01343
G1 X183.291 Y188.675 E.51198
G1 X182.784 Y188.675 E.01375
G1 X169.506 Y175.397 E.50971
G1 X169.439 Y175.406 E.00185
G1 X169.135 Y175.532 E.00894
G1 X182.278 Y188.675 E.50453
G1 X181.771 Y188.675 E.01375
G1 X168.804 Y175.708 E.49777
G1 X168.518 Y175.928 E.00981
G1 X181.265 Y188.675 E.48933
G1 X180.758 Y188.675 E.01375
G1 X168.286 Y176.203 E.47878
M73 P13 R3
G1 X168.122 Y176.416 E.00729
G1 X168.084 Y176.508 E.0027
G1 X180.252 Y188.675 E.46707
G1 X179.745 Y188.675 E.01375
G1 X167.936 Y176.866 E.45332
G1 X167.906 Y176.939 E.00214
G1 X167.859 Y177.295 E.00976
G1 X179.239 Y188.675 E.43684
G1 X178.732 Y188.675 E.01375
G1 X167.825 Y177.768 E.4187
G1 X167.825 Y178.274 E.01375
G1 X178.226 Y188.675 E.39925
G1 X177.719 Y188.675 E.01375
G1 X167.825 Y178.781 E.37981
G1 X167.825 Y179.288 E.01375
M73 P14 R3
G1 X177.212 Y188.675 E.36037
G1 X176.706 Y188.675 E.01375
G1 X167.825 Y179.794 E.34092
G1 X167.825 Y180.301 E.01375
G1 X176.199 Y188.675 E.32148
G1 X175.693 Y188.675 E.01375
G1 X167.825 Y180.807 E.30203
G1 X167.825 Y181.314 E.01375
G1 X175.186 Y188.675 E.28259
G1 X174.68 Y188.675 E.01375
G1 X167.825 Y181.82 E.26314
G1 X167.825 Y182.327 E.01375
G1 X174.173 Y188.675 E.2437
G1 X173.667 Y188.675 E.01375
G1 X167.825 Y182.833 E.22425
G1 X167.825 Y183.34 E.01375
G1 X173.16 Y188.675 E.20481
M73 P15 R3
G1 X172.654 Y188.675 E.01375
G1 X167.825 Y183.846 E.18536
G1 X167.825 Y184.353 E.01375
G1 X172.147 Y188.675 E.16592
G1 X171.64 Y188.675 E.01375
G1 X167.825 Y184.86 E.14647
G1 X167.825 Y185.366 E.01375
G1 X171.134 Y188.675 E.12703
G1 X170.627 Y188.675 E.01375
G1 X167.825 Y185.873 E.10758
G1 X167.825 Y186.379 E.01375
G1 X170.121 Y188.675 E.08814
G1 X169.548 Y188.608 E.01566
G1 X167.705 Y186.766 E.07074
; stop printing object retraction_tower.stl id:0 copy 0
;LAYER_CHANGE
;Z:0.4
;HEIGHT:0.2
;BEFORE_LAYER_CHANGE
;0.4
G92 E0

EXCLUDE_OBJECT_END NAME=retraction_tower.stl_id_0_copy_0
;AFTER_LAYER_CHANGE
;0.4
;_SET_FAN_SPEED_CHANGING_LAYER
; Calib_Retraction_tower: Z_HEIGHT: 0.4, length:0
SET_VELOCITY_LIMIT ACCEL=5000 ACCEL_TO_DECEL=2500
M104 S260 ; set nozzle temperature
; printing object retraction_tower.stl id:0 copy 0
EXCLUDE_OBJECT_START NAME=retraction_tower.stl_id_0_copy_0
G1 X167.297 Y187.224 Z.4 F21000
SET_VELOCITY_LIMIT ACCEL=3000 ACCEL_TO_DECEL=1500
;TYPE:Outer wall
;WIDTH:0.399999
G1 F7200
G1 X167.2 Y186.487 E.02164
G1 X167.2 Y177.71 E.25537
G1 X167.2 Y177.513 E.00574
G1 X167.297 Y176.776 E.02164
G1 X167.577 Y176.101 E.02126
G1 X168.021 Y175.521 E.02126
G1 X168.601 Y175.077 E.02126
G1 X169.276 Y174.797 E.02126
G1 X170.013 Y174.7 E.02164
G1 X203.987 Y174.7 E.98855
G1 X204.724 Y174.797 E.02164
G1 X205.399 Y175.077 E.02126
G1 X205.979 Y175.521 E.02126
G1 X206.423 Y176.101 E.02126
G1 X206.703 Y176.776 E.02126
G1 X206.8 Y177.513 E.02164
G1 X206.8 Y186.487 E.26111
G1 X206.703 Y187.224 E.02164
G1 X206.423 Y187.899 E.02126
G1 X205.979 Y188.479 E.02126
G1 X205.399 Y188.923 E.02126
G1 X204.724 Y189.203 E.02126
G1 X203.987 Y189.3 E.02164
G1 X170.013 Y189.3 E.98855
M73 P16 R3
G1 X169.276 Y189.203 E.02164
G1 X168.601 Y188.923 E.02126
G1 X168.021 Y188.479 E.02126
G1 X167.577 Y187.899 E.02126
G1 X167.297 Y187.224 E.02126
SET_VELOCITY_LIMIT ACCEL=5000 ACCEL_TO_DECEL=2500
G1 X167.645 Y187.131 F21000
;TYPE:Inner wall
G1 F12000
G1 X167.557 Y186.463 E.01959
G1 X167.557 Y177.71 E.25469
G1 X167.557 Y177.537 E.00506
G1 X167.645 Y176.869 E.01959
G1 X167.889 Y176.281 E.01852
G1 X168.276 Y175.776 E.01852
G1 X168.781 Y175.389 E.01852
G1 X169.369 Y175.145 E.01852
G1 X170.037 Y175.057 E.01959
G1 X203.963 Y175.057 E.98719
G1 X204.631 Y175.145 E.01959
G1 X205.219 Y175.389 E.01852
G1 X205.724 Y175.776 E.01852
G1 X206.111 Y176.281 E.01852
G1 X206.355 Y176.869 E.01852
G1 X206.443 Y177.537 E.01959
G1 X206.443 Y186.463 E.25975
G1 X206.355 Y187.131 E.01959
G1 X206.111 Y187.719 E.01852
G1 X205.724 Y188.224 E.01852
G1 X205.219 Y188.611 E.01852
G1 X204.631 Y188.855 E.01852
G1 X203.963 Y188.943 E.01959
G1 X170.037 Y188.943 E.98719
G1 X169.369 Y188.855 E.01959
G1 X168.781 Y188.611 E.01852
G1 X168.276 Y188.224 E.01852
G1 X167.889 Y187.719 E.01852
G1 X167.645 Y187.131 E.01852
G1 X206.295 Y186.766 F21000
;TYPE:Internal solid infill
;WIDTH:0.4011
G1 F12000
G1 X204.452 Y188.608 E.07606
G1 X203.879 Y188.675 E.01684
G1 X206.175 Y186.379 E.09477
G1 X206.175 Y185.873 E.01478
G1 X203.373 Y188.675 E.11568
G1 X202.866 Y188.675 E.01478
G1 X206.175 Y185.366 E.13659
G1 X206.175 Y184.86 E.01478
G1 X202.36 Y188.675 E.1575
G1 X201.853 Y188.675 E.01478
G1 X206.175 Y184.353 E.1784
G1 X206.175 Y183.846 E.01478
G1 X201.346 Y188.675 E.19931
G1 X200.84 Y188.675 E.01478
G1 X206.175 Y183.34 E.22022
G1 X206.175 Y182.833 E.01478
G1 X200.333 Y188.675 E.24113
G1 X199.827 Y188.675 E.01478
G1 X206.175 Y182.327 E.26204
G1 X206.175 Y181.82 E.01478
G1 X199.32 Y188.675 E.28295
G1 X198.814 Y188.675 E.01478
G1 X206.175 Y181.314 E.30386
G1 X206.175 Y180.807 E.01478
G1 X198.307 Y188.675 E.32476
G1 X197.801 Y188.675 E.01478
G1 X206.175 Y180.301 E.34567
M73 P17 R3
G1 X206.175 Y179.794 E.01478
G1 X197.294 Y188.675 E.36658
G1 X196.788 Y188.675 E.01478
G1 X206.175 Y179.288 E.38749
G1 X206.175 Y178.781 E.01478
G1 X196.281 Y188.675 E.4084
G1 X195.774 Y188.675 E.01478
G1 X206.175 Y178.274 E.42931
G1 X206.175 Y177.768 E.01478
G1 X195.268 Y188.675 E.45022
G1 X194.761 Y188.675 E.01478
G1 X206.141 Y177.295 E.46972
G1 X206.094 Y176.939 E.0105
G1 X206.064 Y176.866 E.0023
G1 X194.255 Y188.675 E.48744
G1 X193.748 Y188.675 E.01478
G1 X205.916 Y176.508 E.50223
G1 X205.878 Y176.416 E.0029
G1 X205.714 Y176.203 E.00784
G1 X193.242 Y188.675 E.51482
G1 X192.735 Y188.675 E.01478
G1 X205.482 Y175.928 E.52616
G1 X205.196 Y175.708 E.01054
G1 X192.229 Y188.675 E.53524
G1 X191.722 Y188.675 E.01478
G1 X204.865 Y175.532 E.54251
G1 X204.561 Y175.406 E.00961
G1 X204.494 Y175.397 E.00199
G1 X191.216 Y188.675 E.54808
G1 X190.709 Y188.675 E.01478
G1 X204.046 Y175.338 E.55051
G2 X203.553 Y175.325 I-.297 J1.867 E.01445
G1 X190.202 Y188.675 E.55106
G1 X189.696 Y188.675 E.01478
G1 X203.046 Y175.325 E.55106
G1 X202.54 Y175.325 E.01478
G1 X189.189 Y188.675 E.55106
G1 X188.683 Y188.675 E.01478
G1 X202.033 Y175.325 E.55106
M73 P18 R3
G1 X201.527 Y175.325 E.01478
G1 X188.176 Y188.675 E.55106
G1 X187.67 Y188.675 E.01478
G1 X201.02 Y175.325 E.55106
G1 X200.513 Y175.325 E.01478
G1 X187.163 Y188.675 E.55106
G1 X186.657 Y188.675 E.01478
G1 X200.007 Y175.325 E.55106
G1 X199.5 Y175.325 E.01478
G1 X186.15 Y188.675 E.55106
G1 X185.644 Y188.675 E.01478
G1 X198.994 Y175.325 E.55106
G1 X198.487 Y175.325 E.01478
G1 X185.137 Y188.675 E.55106
G1 X184.63 Y188.675 E.01478
G1 X197.981 Y175.325 E.55106
G1 X197.474 Y175.325 E.01478
G1 X184.124 Y188.675 E.55106
G1 X183.617 Y188.675 E.01478
G1 X196.968 Y175.325 E.55106
G1 X196.461 Y175.325 E.01478
G1 X183.111 Y188.675 E.55106
G1 X182.604 Y188.675 E.01478
G1 X195.955 Y175.325 E.55106
G1 X195.448 Y175.325 E.01478
G1 X182.098 Y188.675 E.55106
G1 X181.591 Y188.675 E.01478
G1 X194.941 Y175.325 E.55106
G1 X194.435 Y175.325 E.01478
G1 X181.085 Y188.675 E.55106
G1 X180.578 Y188.675 E.01478
G1 X193.928 Y175.325 E.55106
G1 X193.422 Y175.325 E.01478
G1 X180.072 Y188.675 E.55106
M73 P19 R3
G1 X179.565 Y188.675 E.01478
G1 X192.915 Y175.325 E.55106
G1 X192.409 Y175.325 E.01478
G1 X179.059 Y188.675 E.55106
G1 X178.552 Y188.675 E.01478
G1 X191.902 Y175.325 E.55106
G1 X191.396 Y175.325 E.01478
G1 X178.045 Y188.675 E.55106
G1 X177.539 Y188.675 E.01478
G1 X190.889 Y175.325 E.55106
G1 X190.383 Y175.325 E.01478
G1 X177.032 Y188.675 E.55106
G1 X176.526 Y188.675 E.01478
G1 X189.876 Y175.325 E.55106
G1 X189.369 Y175.325 E.01478
G1 X176.019 Y188.675 E.55106
G1 X175.513 Y188.675 E.01478
G1 X188.863 Y175.325 E.55106
G1 X188.356 Y175.325 E.01478
G1 X175.006 Y188.675 E.55106
G1 X174.5 Y188.675 E.01478
G1 X187.85 Y175.325 E.55106
G1 X187.343 Y175.325 E.01478
G1 X173.993 Y188.675 E.55106
G1 X173.487 Y188.675 E.01478
G1 X186.837 Y175.325 E.55106
G1 X186.33 Y175.325 E.01478
G1 X172.98 Y188.675 E.55106
G1 X172.473 Y188.675 E.01478
G1 X185.824 Y175.325 E.55106
G1 X185.317 Y175.325 E.01478
G1 X171.967 Y188.675 E.55106
G1 X171.46 Y188.675 E.01478
G1 X184.811 Y175.325 E.55106
M73 P20 R3
G1 X184.304 Y175.325 E.01478
G1 X170.954 Y188.675 E.55106
G1 X170.447 Y188.675 E.01478
G1 X183.798 Y175.325 E.55106
G1 X183.291 Y175.325 E.01478
G1 X169.954 Y188.662 E.55051
G1 X169.506 Y188.603 E.01318
G1 X182.784 Y175.325 E.54808
G1 X182.278 Y175.325 E.01478
G1 X169.135 Y188.468 E.54251
G3 X168.804 Y188.292 I.164 J-.705 E.01105
G1 X181.771 Y175.325 E.53524
G1 X181.265 Y175.325 E.01478
